; generated by Slic3r 1.2.9 on 2018-10-06 at 09:46:25

; external perimeters extrusion width = 0.40mm
; perimeters extrusion width = 0.48mm
; infill extrusion width = 0.48mm
; solid infill extrusion width = 0.48mm
; top infill extrusion width = 0.48mm

M107
M190 S60 ; set bed temperature
M104 S210 ; set temperature

M109 S210 ; wait for temperature to be reached
G21 ; set units to millimeters
G90 ; use absolute coordinates
M82 ; use absolute distances for extrusion
G92 E0
;LAYER:0
G1 Z0.300 F7800.000
G1 E-2.00000 F2400.00000
G92 E0
G1 X68.576 Y72.272 F7800.000
G1 E2.00000 F2400.00000
G1 X70.225 Y70.708 E2.15180 F1800.000
G1 X72.455 Y69.673 E2.31606
G1 X74.500 Y69.393 E2.45395
G1 X125.500 Y69.393 E5.86103
G1 X127.926 Y69.791 E6.02528
G1 X130.099 Y70.941 E6.18954 F1800.000
G1 X131.792 Y72.725 E6.35380
G1 X132.827 Y74.955 E6.51806
G1 X133.107 Y77.000 E6.65595
G1 X133.107 Y123.000 E9.72900
G1 X132.709 Y125.426 E9.89326
G1 X131.559 Y127.599 E10.05752
G1 X129.775 Y129.292 E10.22178
G1 X127.545 Y130.327 E10.38603
G1 X125.500 Y130.607 E10.52393
G1 X74.500 Y130.607 E13.93100
G1 X72.074 Y130.209 E14.09526
G1 X69.901 Y129.059 E14.25952
G1 X68.208 Y127.275 E14.42378
G1 X67.173 Y125.045 E14.58803
G1 X66.893 Y123.000 E14.72593
G1 X66.893 Y77.000 E17.79898
G1 X67.291 Y74.574 E17.96323
G1 X68.441 Y72.401 E18.12749
G1 X68.533 Y72.314 E18.13594
G1 X68.973 Y72.589 F7800.000
G1 X70.741 Y71.011 E18.29427 F1800.000
G1 X72.931 Y70.105 E18.45260
G1 X74.500 Y69.929 E18.55810
G1 X125.500 Y69.929 E21.96517
G1 X127.837 Y70.326 E22.12350
G1 X129.911 Y71.473 E22.28183 F1800.000
G1 X131.489 Y73.241 E22.44016
G1 X132.395 Y75.431 E22.59849
G1 X132.571 Y77.000 E22.70399
G1 X132.571 Y123.000 E25.77704
G1 X132.174 Y125.337 E25.93537
G1 X131.027 Y127.411 E26.09370
G1 X129.259 Y128.989 E26.25203
G1 X127.069 Y129.895 E26.41036
G1 X125.500 Y130.071 E26.51586
G1 X74.500 Y130.071 E29.92293
G1 X72.163 Y129.674 E30.08126
G1 X70.089 Y128.527 E30.23959
G1 X68.511 Y126.759 E30.39792
G1 X67.605 Y124.569 E30.55625
G1 X67.429 Y123.000 E30.66175
G1 X67.429 Y77.000 E33.73480
G1 X67.826 Y74.663 E33.89313
G1 X68.944 Y72.642 E34.04745
G1 X69.456 Y72.870 F7800.000
G1 X69.504 Y72.787 E34.05386 F1800.000
G1 X71.253 Y71.328 E34.20603
G1 X74.500 Y70.464 E34.43046
G1 X125.500 Y70.464 E37.83754
G1 X127.743 Y70.861 E37.98971
G1 X129.713 Y72.004 E38.14188 F1800.000
G1 X131.172 Y73.753 E38.29405
G1 X132.036 Y77.000 E38.51848
G1 X132.036 Y123.000 E41.59153
G1 X131.639 Y125.243 E41.74370
G1 X130.496 Y127.213 E41.89587
G1 X128.747 Y128.672 E42.04804
G1 X125.500 Y129.536 E42.27247
G1 X74.500 Y129.536 E45.67955
G1 X72.257 Y129.139 E45.83172
G1 X70.287 Y127.996 E45.98389
G1 X68.828 Y126.247 E46.13606
G1 X67.964 Y123.000 E46.36049
G1 X67.964 Y77.000 E49.43354
G1 X68.361 Y74.757 E49.58571
G1 X69.426 Y72.921 E49.72746
G1 E47.72746 F2400.00000
G92 E0
G1 X116.874 Y104.373 F7800.000
G1 E2.00000 F2400.00000
G1 X109.127 Y104.373 E2.51757 F1800.000
G1 X109.127 Y95.626 E3.10195
G1 X116.874 Y95.626 E3.61952
G1 X116.874 Y104.313 E4.19989
G1 X116.339 Y103.838 F7800.000
G1 X109.662 Y103.838 E4.64590 F1800.000
G1 X109.662 Y96.161 E5.15872
G1 X116.339 Y96.161 E5.60473
G1 X116.339 Y103.778 E6.11353
G1 X115.803 Y103.302 F7800.000
G1 X110.198 Y103.302 E6.48798 F1800.000
G1 X110.198 Y96.697 E6.92923
G1 X115.803 Y96.697 E7.30367
G1 X115.803 Y103.242 E7.74091
G1 X115.803 Y103.702 F7800.000
G1 X90.874 Y104.373 F7800.000
G1 X83.127 Y104.373 E8.25848 F1800.000
G1 X83.127 Y95.626 E8.84286
G1 X90.874 Y95.626 E9.36043
G1 X90.874 Y104.313 E9.94080
G1 X90.339 Y103.838 F7800.000
G1 X83.662 Y103.838 E10.38681 F1800.000
G1 X83.662 Y96.161 E10.89963
G1 X90.339 Y96.161 E11.34564
G1 X90.339 Y103.778 E11.85444
G1 X89.803 Y103.302 F7800.000
G1 X84.198 Y103.302 E12.22889 F1800.000
G1 X84.198 Y96.697 E12.67014
G1 X89.803 Y96.697 E13.04458
G1 X89.803 Y103.242 E13.48182
G1 X89.803 Y103.702 F7800.000
G1 X75.871 Y121.629 F7800.000
G1 X75.871 Y78.371 E16.37166 F1800.000
G1 X124.129 Y78.371 E19.59552
G1 X124.129 Y121.629 E22.48536
G1 X75.931 Y121.629 E25.70521
G1 X75.336 Y122.164 F7800.000
G1 X75.336 Y77.836 E28.66661 F1800.000
G1 X124.664 Y77.836 E31.96204
G1 X124.664 Y122.164 E34.92344
G1 X75.396 Y122.164 E38.21486
G1 X74.800 Y122.700 F7800.000
G1 X74.800 Y77.300 E41.24783 F1800.000
G1 X125.200 Y77.300 E44.61482
G1 X125.200 Y122.700 E47.64779
G1 X74.860 Y122.700 E51.01077
G1 X75.000 Y122.354 F7800.000
G1 X76.193 Y121.040 F7800.000
G1 X76.460 Y121.307 E51.03610 F1800.000
G1 X77.220 Y121.307 E51.08706
G1 X76.193 Y120.280 E51.18445
G1 X76.193 Y119.520 E51.23541
G1 X77.980 Y121.307 E51.40486
G1 X78.740 Y121.307 E51.45582
G1 X76.193 Y118.760 E51.69734
G1 X76.193 Y117.999 E51.74830
G1 X79.501 Y121.307 E52.06188
G1 X80.261 Y121.307 E52.11284
G1 X76.193 Y117.239 E52.49849
G1 X76.193 Y116.479 E52.54945
G1 X81.021 Y121.307 E53.00716
G1 X81.781 Y121.307 E53.05812
G1 X76.193 Y115.719 E53.58789
G1 X76.193 Y114.959 E53.63885
G1 X82.541 Y121.307 E54.24069
G1 X83.301 Y121.307 E54.29165
G1 X76.193 Y114.199 E54.96555
G1 X76.193 Y113.439 E55.01651
G1 X84.061 Y121.307 E55.76248
G1 X84.821 Y121.307 E55.81344
G1 X76.193 Y112.679 E56.63147
G1 X76.193 Y111.919 E56.68243
G1 X85.581 Y121.307 E57.57253
G1 X86.342 Y121.307 E57.62348
G1 X76.193 Y111.158 E58.58565
G1 X76.193 Y110.398 E58.63660
G1 X87.102 Y121.307 E59.67083
G1 X87.862 Y121.307 E59.72179
G1 X76.193 Y109.638 E60.82808
G1 X76.193 Y108.878 E60.87903
G1 X88.622 Y121.307 E62.05739
G1 X89.382 Y121.307 E62.10834
G1 X76.193 Y108.118 E63.35876
G1 X76.193 Y107.358 E63.40972
G1 X90.142 Y121.307 E64.73220
G1 X90.902 Y121.307 E64.78316
G1 X76.193 Y106.598 E66.17771
G1 X76.193 Y105.838 E66.22866
G1 X91.662 Y121.307 E67.69527
G1 X92.423 Y121.307 E67.74623
G1 X76.193 Y105.077 E69.28491
G1 X76.193 Y104.317 E69.33586
G1 X93.183 Y121.307 E70.94660
G1 X93.943 Y121.307 E70.99756
G1 X76.193 Y103.557 E72.68036
G1 X76.193 Y102.797 E72.73132
G1 X94.703 Y121.307 E74.48619
G1 X95.463 Y121.307 E74.53714
G1 X76.193 Y102.037 E76.36407
G1 X76.193 Y101.277 E76.41503
G1 X96.223 Y121.307 E78.31403
G1 X96.983 Y121.307 E78.36498
G1 X76.193 Y100.517 E80.33604
G1 X76.193 Y99.757 E80.38700
G1 X97.743 Y121.307 E82.43012
G1 X98.503 Y121.307 E82.48108
G1 X76.193 Y98.996 E84.59627
G1 X76.193 Y98.236 E84.64722
G1 X99.264 Y121.307 E86.83448
G1 X100.024 Y121.307 E86.88543
G1 X83.411 Y104.695 E88.46038
G1 X84.172 Y104.695 E88.51134
G1 X100.784 Y121.307 E90.08628
G1 X101.544 Y121.307 E90.13724
G1 X84.932 Y104.695 E91.71219
G1 X85.692 Y104.695 E91.76314
G1 X102.304 Y121.307 E93.33809
G1 X103.064 Y121.307 E93.38905
G1 X86.452 Y104.695 E94.96399
G1 X87.212 Y104.695 E95.01495
G1 X103.824 Y121.307 E96.58990
G1 X104.584 Y121.307 E96.64086
G1 X87.972 Y104.695 E98.21580
G1 X88.732 Y104.695 E98.26676
G1 X105.345 Y121.307 E99.84170
G1 X106.105 Y121.307 E99.89266
G1 X89.492 Y104.695 E101.46761
G1 X90.253 Y104.695 E101.51857
G1 X106.865 Y121.307 E103.09351
G1 X107.625 Y121.307 E103.14447
G1 X91.013 Y104.695 E104.71942
G1 X91.196 Y104.118 F7800.000
G1 X108.385 Y121.307 E106.34906 F1800.000
G1 X109.145 Y121.307 E106.40002
G1 X91.196 Y103.358 E108.10172
G1 X91.196 Y102.598 E108.15268
G1 X109.905 Y121.307 E109.92645
G1 X110.665 Y121.307 E109.97741
G1 X91.196 Y101.838 E111.82324
G1 X91.196 Y101.077 E111.87420
G1 X111.426 Y121.307 E113.79210
G1 X112.186 Y121.307 E113.84305
G1 X91.196 Y100.317 E115.83302
G1 X91.196 Y99.557 E115.88397
G1 X112.946 Y121.307 E117.94600
G1 X113.706 Y121.307 E117.99696
G1 X91.196 Y98.797 E120.13105
G1 X91.196 Y98.037 E120.18201
G1 X114.466 Y121.307 E122.38816
G1 X115.226 Y121.307 E122.43912
G1 X91.196 Y97.277 E124.71734
G1 X91.196 Y96.517 E124.76830
G1 X115.986 Y121.307 E127.11858
G1 X116.746 Y121.307 E127.16954
G1 X91.196 Y95.757 E129.59189
G1 X90.743 Y95.304 F7800.000
G1 X76.193 Y80.754 E130.97136 F1800.000
G1 X76.193 Y79.994 E131.02232
G1 X117.506 Y121.307 E134.93911
G1 X118.267 Y121.307 E134.99007
G1 X76.193 Y79.233 E138.97892
G1 X76.412 Y78.693 E139.01804
G1 X119.027 Y121.307 E143.05814
G1 X119.787 Y121.307 E143.10909
G1 X77.173 Y78.693 E147.14919
G1 X77.933 Y78.693 E147.20015
G1 X120.547 Y121.307 E151.24025
G1 X121.307 Y121.307 E151.29120
G1 X78.693 Y78.693 E155.33130
G1 X79.453 Y78.693 E155.38226
G1 X122.067 Y121.307 E159.42236
G1 X122.827 Y121.307 E159.47332
G1 X80.213 Y78.693 E163.51342
G1 X80.973 Y78.693 E163.56437
G1 X123.587 Y121.307 E167.60447
G1 X123.807 Y120.767 E167.64358
G1 X81.733 Y78.693 E171.63244
G1 X82.493 Y78.693 E171.68340
G1 X123.807 Y120.007 E175.60020
G1 X123.807 Y102.524 F7800.000
G1 X117.196 Y95.913 E176.22699 F1800.000
G1 X117.196 Y96.673 E176.27795
G1 X123.807 Y103.284 E176.90474
G1 X123.807 Y104.044 E176.95569
G1 X117.196 Y97.433 E177.58248
G1 X117.196 Y98.193 E177.63344
G1 X123.807 Y104.804 E178.26023
G1 X123.807 Y105.564 E178.31119
G1 X117.196 Y98.953 E178.93797
G1 X117.196 Y99.713 E178.98893
G1 X123.807 Y106.324 E179.61572
G1 X123.807 Y107.085 E179.66668
G1 X117.196 Y100.473 E180.29347
G1 X117.196 Y101.233 E180.34442
G1 X123.807 Y107.845 E180.97121
G1 X123.807 Y108.605 E181.02217
G1 X117.196 Y101.994 E181.64896
G1 X117.196 Y102.754 E181.69992
G1 X123.807 Y109.365 E182.32670
G1 X123.807 Y110.125 E182.37766
G1 X117.196 Y103.514 E183.00445
G1 X117.196 Y104.274 E183.05541
G1 X123.807 Y110.885 E183.68220
G1 X123.807 Y111.645 E183.73315
G1 X116.857 Y104.695 E184.39209
G1 X116.097 Y104.695 E184.44305
G1 X123.807 Y112.405 E185.17405
G1 X123.807 Y113.165 E185.22501
G1 X115.337 Y104.695 E186.02808
G1 X114.576 Y104.695 E186.07904
G1 X123.807 Y113.926 E186.95417
G1 X123.807 Y114.686 E187.00513
G1 X113.816 Y104.695 E187.95232
G1 X113.056 Y104.695 E188.00328
G1 X123.807 Y115.446 E189.02254
G1 X123.807 Y116.206 E189.07350
G1 X112.296 Y104.695 E190.16482
G1 X111.536 Y104.695 E190.21578
G1 X123.807 Y116.966 E191.37917
G1 X123.807 Y117.726 E191.43013
G1 X110.776 Y104.695 E192.66558
G1 X110.016 Y104.695 E192.71654
G1 X123.807 Y118.486 E194.02405
G1 X123.807 Y119.246 E194.07501
G1 X109.256 Y104.695 E195.45459
G1 X108.805 Y104.244 F7800.000
G1 X83.254 Y78.693 E197.87704 F1800.000
G1 X84.014 Y78.693 E197.92800
G1 X108.805 Y103.484 E200.27839
G1 X108.805 Y102.724 E200.32934
G1 X84.774 Y78.693 E202.60767
G1 X85.534 Y78.693 E202.65862
G1 X108.805 Y101.964 E204.86488
G1 X108.805 Y101.204 E204.91584
G1 X86.294 Y78.693 E207.05003
G1 X87.054 Y78.693 E207.10099
G1 X108.805 Y100.444 E209.16312
G1 X108.805 Y99.684 E209.21408
G1 X87.814 Y78.693 E211.20414
G1 X88.574 Y78.693 E211.25510
G1 X108.805 Y98.924 E213.17310
G1 X108.805 Y98.163 E213.22406
G1 X89.335 Y78.693 E215.06999
G1 X90.095 Y78.693 E215.12095
G1 X108.805 Y97.403 E216.89482
G1 X108.805 Y96.643 E216.94578
G1 X90.855 Y78.693 E218.64759
G1 X91.615 Y78.693 E218.69855
G1 X108.805 Y95.883 E220.32829
G1 X108.986 Y95.304 F7800.000
G1 X92.375 Y78.693 E221.90314 F1800.000
G1 X93.135 Y78.693 E221.95410
G1 X109.746 Y95.304 E223.52895
G1 X110.506 Y95.304 E223.57991
G1 X93.895 Y78.693 E225.15476
G1 X94.655 Y78.693 E225.20572
G1 X111.267 Y95.304 E226.78057
G1 X112.027 Y95.304 E226.83153
G1 X95.415 Y78.693 E228.40638
G1 X96.176 Y78.693 E228.45734
G1 X112.787 Y95.304 E230.03219
G1 X113.547 Y95.304 E230.08315
G1 X96.936 Y78.693 E231.65800
G1 X97.696 Y78.693 E231.70895
G1 X114.307 Y95.304 E233.28381
G1 X115.067 Y95.304 E233.33476
G1 X98.456 Y78.693 E234.90961
G1 X99.216 Y78.693 E234.96057
G1 X115.827 Y95.304 E236.53542
G1 X116.587 Y95.304 E236.58638
G1 X99.976 Y78.693 E238.16123
G1 X100.736 Y78.693 E238.21219
G1 X123.807 Y101.764 E240.39945
G1 X123.807 Y101.004 E240.45041
G1 X101.496 Y78.693 E242.56560
G1 X102.257 Y78.693 E242.61656
G1 X123.807 Y100.243 E244.65969
G1 X123.807 Y99.483 E244.71065
G1 X103.017 Y78.693 E246.68171
G1 X103.777 Y78.693 E246.73267
G1 X123.807 Y98.723 E248.63167
G1 X123.807 Y97.963 E248.68263
G1 X104.537 Y78.693 E250.50957
G1 X105.297 Y78.693 E250.56053
G1 X123.807 Y97.203 E252.31540
G1 X123.807 Y96.443 E252.36636
G1 X106.057 Y78.693 E254.04917
G1 X106.817 Y78.693 E254.10013
G1 X123.807 Y95.683 E255.71088
G1 X123.807 Y94.923 E255.76183
G1 X107.577 Y78.693 E257.30052
G1 X108.337 Y78.693 E257.35147
G1 X123.807 Y94.163 E258.81809
G1 X123.807 Y93.402 E258.86905
G1 X109.098 Y78.693 E260.26360
G1 X109.858 Y78.693 E260.31456
G1 X123.807 Y92.642 E261.63705
G1 X123.807 Y91.882 E261.68801
G1 X110.618 Y78.693 E262.93843
G1 X111.378 Y78.693 E262.98939
G1 X123.807 Y91.122 E264.16775
G1 X123.807 Y90.362 E264.21871
G1 X112.138 Y78.693 E265.32501
G1 X112.898 Y78.693 E265.37596
G1 X123.807 Y89.602 E266.41020
G1 X123.807 Y88.842 E266.46116
G1 X113.658 Y78.693 E267.42333
G1 X114.418 Y78.693 E267.47428
G1 X123.807 Y88.082 E268.36439
G1 X123.807 Y87.321 E268.41535
G1 X115.179 Y78.693 E269.23339
G1 X115.939 Y78.693 E269.28434
G1 X123.807 Y86.561 E270.03032
G1 X123.807 Y85.801 E270.08128
G1 X116.699 Y78.693 E270.75519
G1 X117.459 Y78.693 E270.80615
G1 X123.807 Y85.041 E271.40800
G1 X123.807 Y84.281 E271.45896
G1 X118.219 Y78.693 E271.98874
G1 X118.979 Y78.693 E272.03970
G1 X123.807 Y83.521 E272.49742
G1 X123.807 Y82.761 E272.54838
G1 X119.739 Y78.693 E272.93403
G1 X120.499 Y78.693 E272.98499
G1 X123.807 Y82.001 E273.29858
G1 X123.807 Y81.240 E273.34954
G1 X121.260 Y78.693 E273.59107
G1 X122.020 Y78.693 E273.64203
G1 X123.807 Y80.480 E273.81149
G1 X123.807 Y79.720 E273.86245
G1 X122.780 Y78.693 E273.95985
G1 X123.540 Y78.693 E274.01081
G1 X123.807 Y78.960 E274.03614
G1 X89.983 Y95.304 F7800.000
G1 X76.193 Y81.514 E275.34356 F1800.000
G1 X76.193 Y82.274 E275.39451
G1 X89.223 Y95.304 E276.62986
G1 X88.463 Y95.304 E276.68082
G1 X76.193 Y83.034 E277.84411
G1 X76.193 Y83.794 E277.89506
G1 X87.703 Y95.304 E278.98629
G1 X86.943 Y95.304 E279.03724
G1 X76.193 Y84.554 E280.05640
G1 X76.193 Y85.314 E280.10736
G1 X86.183 Y95.304 E281.05445
G1 X85.423 Y95.304 E281.10541
G1 X76.193 Y86.074 E281.98044
G1 X76.193 Y86.835 E282.03140
G1 X84.662 Y95.304 E282.83436
G1 X83.902 Y95.304 E282.88532
G1 X76.193 Y87.595 E283.61622
G1 X76.193 Y88.355 E283.66718
G1 X83.142 Y95.304 E284.32602
G1 X82.805 Y95.727 F7800.000
G1 X76.193 Y89.115 E284.95290 F1800.000
G1 X76.193 Y89.875 E285.00386
G1 X82.805 Y96.487 E285.63074
G1 X82.805 Y97.247 E285.68170
G1 X76.193 Y90.635 E286.30858
G1 X76.193 Y91.395 E286.35954
G1 X82.805 Y98.008 E286.98642
G1 X82.805 Y98.768 E287.03738
G1 X76.193 Y92.155 E287.66426
G1 X76.193 Y92.916 E287.71522
G1 X82.805 Y99.528 E288.34210
G1 X82.805 Y100.288 E288.39306
G1 X76.193 Y93.676 E289.01994
G1 X76.193 Y94.436 E289.07090
G1 X82.805 Y101.048 E289.69778
G1 X82.805 Y101.808 E289.74874
G1 X76.193 Y95.196 E290.37562
G1 X76.193 Y95.956 E290.42658
G1 X82.805 Y102.568 E291.05347
G1 X82.805 Y103.328 E291.10442
G1 X76.193 Y96.716 E291.73131
G1 X76.193 Y97.476 E291.78226
G1 X82.805 Y104.089 E292.40915
M104 S200 ; set temperature
M140 S55 ; wait for bed temperature to be reached
;LAYER:1
G1 Z0.600 F7800.000
G1 X109.502 Y103.998 F7800.000
G1 X109.502 Y96.001 E292.82696 F900.000
G1 X116.499 Y96.001 E293.19253
G1 X116.499 Y103.998 E293.61035
G1 X109.562 Y103.998 E293.97278
G1 X109.921 Y103.579 F7800.000
G1 X109.921 Y96.420 E294.34683 F900.000
G1 X116.080 Y96.420 E294.66863
G1 X116.080 Y103.579 E295.04268
G1 X109.981 Y103.579 E295.36135
G1 X110.298 Y103.202 F7800.000
G1 X110.298 Y96.797 E295.62946 F900.000
G1 X115.703 Y96.797 E295.85572
G1 X115.703 Y103.202 E296.12383
G1 X110.358 Y103.202 E296.34758
G1 X109.898 Y103.202 F7800.000
G1 X90.499 Y103.998 F7800.000
G1 X83.502 Y103.998 E296.71315 F900.000
G1 X83.502 Y96.001 E297.13096
G1 X90.499 Y96.001 E297.49653
G1 X90.499 Y103.938 E297.91122
G1 X90.080 Y103.579 F7800.000
G1 X83.921 Y103.579 E298.23302 F900.000
G1 X83.921 Y96.420 E298.60706
G1 X90.080 Y96.420 E298.92887
G1 X90.080 Y103.519 E299.29978
G1 X89.703 Y103.202 F7800.000
G1 X84.298 Y103.202 E299.52603 F900.000
G1 X84.298 Y96.797 E299.79415
G1 X89.703 Y96.797 E300.02040
G1 X89.703 Y103.142 E300.28601
G1 X89.703 Y103.602 F7800.000
G1 X75.496 Y122.004 F7800.000
G1 X75.496 Y77.996 E302.58519 F3600.000
G1 X124.504 Y77.996 E305.14559
G1 X124.504 Y122.004 E307.44477
G1 X75.556 Y122.004 E310.00204
G1 X75.077 Y122.423 F7800.000
G1 X75.077 Y77.577 E312.34499 F3600.000
