; generated by Slic3r 1.2.9 on 2018-09-30 at 19:24:50

; external perimeters extrusion width = 0.40mm
; perimeters extrusion width = 0.48mm
; infill extrusion width = 0.48mm
; solid infill extrusion width = 0.48mm
; top infill extrusion width = 0.48mm

M107
M190 S70 ; set bed temperature
M104 S240 ; set temperature

M109 S240 ; wait for temperature to be reached
G21 ; set units to millimeters
G90 ; use absolute coordinates
M82 ; use absolute distances for extrusion
G92 E0
;LAYER:0
G1 Z0.400 F12000.000
G1 E-2.00000 F2400.00000
G92 E0
G1 X92.322 Y92.322 F12000.000
G1 E2.00000 F2400.00000
G1 X92.626 Y92.017 E2.05114 F1800.000
G1 X94.690 Y90.519 E2.35400
G1 X95.456 Y90.129 E2.45608
G1 X97.873 Y89.343 E2.75793
G1 X98.723 Y89.208 E2.86019
G1 X101.277 Y89.208 E3.16354
G1 X102.127 Y89.343 E3.26575 F1800.000
G1 X104.544 Y90.129 E3.56760
G1 X105.310 Y90.519 E3.66968
G1 X107.374 Y92.017 E3.97254
G1 X107.983 Y92.626 E4.07482
G1 X109.481 Y94.690 E4.37768
G1 X109.871 Y95.456 E4.47976
G1 X110.657 Y97.873 E4.78161
G1 X110.792 Y98.723 E4.88383
G1 X110.792 Y101.277 E5.18721
G1 X110.657 Y102.127 E5.28943
G1 X109.871 Y104.544 E5.59128
G1 X109.481 Y105.310 E5.69337
G1 X107.983 Y107.374 E5.99622
G1 X107.374 Y107.983 E6.09850
G1 X105.310 Y109.481 E6.40135
G1 X104.544 Y109.871 E6.50344
G1 X102.127 Y110.657 E6.80529
G1 X101.277 Y110.792 E6.90751
G1 X98.723 Y110.792 E7.21089
G1 X97.873 Y110.657 E7.31311
G1 X95.456 Y109.871 E7.61496
G1 X94.690 Y109.481 E7.71704
G1 X92.626 Y107.983 E8.01990
G1 X92.017 Y107.374 E8.12218
G1 X90.519 Y105.310 E8.42504
G1 X90.129 Y104.544 E8.52712
G1 X89.343 Y102.127 E8.82897
G1 X89.208 Y101.277 E8.93118
G1 X89.208 Y98.725 E9.23435
G1 X89.343 Y97.873 E9.33679
G1 X90.129 Y95.456 E9.63864
G1 X90.519 Y94.690 E9.74073
G1 X92.017 Y92.626 E10.04358
G1 X92.279 Y92.364 E10.08760
G1 X92.827 Y92.827 F12000.000
G1 X93.131 Y92.522 E10.13874 F1800.000
G1 X95.014 Y91.155 E10.41503
G1 X95.780 Y90.765 E10.51712
G1 X97.985 Y90.049 E10.79249
G1 X98.835 Y89.914 E10.89474
G1 X101.165 Y89.914 E11.17149
G1 X102.015 Y90.049 E11.27370 F1800.000
G1 X104.220 Y90.765 E11.54907
G1 X104.986 Y91.155 E11.65116
G1 X106.869 Y92.522 E11.92745
G1 X107.478 Y93.131 E12.02974
G1 X108.845 Y95.014 E12.30603
G1 X109.235 Y95.780 E12.40811
G1 X109.951 Y97.985 E12.68349
G1 X110.086 Y98.835 E12.78570
G1 X110.086 Y101.165 E13.06248
G1 X109.951 Y102.015 E13.16469
G1 X109.235 Y104.220 E13.44007
G1 X108.845 Y104.986 E13.54216
G1 X107.478 Y106.869 E13.81845
G1 X106.869 Y107.478 E13.92073
G1 X104.986 Y108.845 E14.19702
G1 X104.220 Y109.235 E14.29911
G1 X102.015 Y109.951 E14.57449
G1 X101.165 Y110.086 E14.67670
G1 X98.835 Y110.086 E14.95347
G1 X97.985 Y109.951 E15.05569
G1 X95.780 Y109.235 E15.33107
G1 X95.014 Y108.845 E15.43315
G1 X93.131 Y107.478 E15.70944
G1 X92.522 Y106.869 E15.81173
G1 X91.155 Y104.986 E16.08802
G1 X90.765 Y104.220 E16.19011
G1 X90.049 Y102.015 E16.46548
G1 X89.914 Y101.165 E16.56769
G1 X89.913 Y98.836 E16.84427
G1 X90.049 Y97.985 E16.94669
G1 X90.765 Y95.780 E17.22206
G1 X91.155 Y95.014 E17.32415
G1 X92.522 Y93.131 E17.60044
G1 X92.784 Y92.869 E17.64446
G1 X93.332 Y93.332 F12000.000
G1 X93.636 Y93.027 E17.69560 F1800.000
G1 X95.338 Y91.792 E17.94533
G1 X96.104 Y91.402 E18.04742
G1 X98.097 Y90.754 E18.29632
G1 X98.947 Y90.619 E18.39856
G1 X101.053 Y90.619 E18.64870
G1 X101.903 Y90.754 E18.75092 F1800.000
G1 X103.896 Y91.402 E18.99981
G1 X104.662 Y91.792 E19.10190
G1 X106.364 Y93.027 E19.35163
G1 X106.973 Y93.636 E19.45392
G1 X108.208 Y95.338 E19.70364
G1 X108.598 Y96.104 E19.80573
G1 X109.246 Y98.097 E20.05463
G1 X109.381 Y98.947 E20.15685
G1 X109.381 Y101.053 E20.40701
G1 X109.246 Y101.903 E20.50923
G1 X108.598 Y103.896 E20.75813
G1 X108.208 Y104.662 E20.86021
G1 X106.973 Y106.364 E21.10994
G1 X106.364 Y106.973 E21.21223
G1 X104.662 Y108.208 E21.46195
G1 X103.896 Y108.598 E21.56404
G1 X101.903 Y109.246 E21.81294
G1 X101.053 Y109.381 E21.91516
G1 X98.947 Y109.381 E22.16532
G1 X98.097 Y109.246 E22.26754
G1 X96.104 Y108.598 E22.51644
G1 X95.338 Y108.208 E22.61853
G1 X93.636 Y106.973 E22.86825
G1 X93.027 Y106.364 E22.97054
G1 X91.792 Y104.662 E23.22027
G1 X91.402 Y103.896 E23.32236
G1 X90.754 Y101.903 E23.57125
G1 X90.619 Y101.053 E23.67347
G1 X90.619 Y98.948 E23.92345
G1 X90.754 Y98.097 E24.02585
G1 X91.402 Y96.104 E24.27476
G1 X91.792 Y95.338 E24.37684
G1 X93.027 Y93.636 E24.62657
G1 X93.289 Y93.374 E24.67059
G1 E22.67059 F2400.00000
G92 E0
G1 X97.752 Y100.000 F12000.000
G1 E2.00000 F2400.00000
G1 X97.862 Y99.305 E2.08358 F1800.000
G1 X98.143 Y98.746 E2.15788
G1 X98.234 Y98.622 E2.17615
G1 X98.679 Y98.181 E2.25055
G1 X99.234 Y97.895 E2.32477
G1 X99.381 Y97.847 E2.34308
G1 X100.000 Y97.752 E2.41748
G1 X100.619 Y97.847 E2.49187
G1 X100.766 Y97.895 E2.51018
G1 X101.321 Y98.181 E2.58440
G1 X101.766 Y98.622 E2.65880
G1 X101.857 Y98.746 E2.67707
G1 X102.138 Y99.305 E2.75137
G1 X102.248 Y100.000 E2.83495
G1 X102.138 Y100.695 E2.91853
G1 X101.857 Y101.254 E2.99284
G1 X101.766 Y101.378 E3.01110
G1 X101.321 Y101.819 E3.08550
G1 X100.766 Y102.105 E3.15972
G1 X100.619 Y102.153 E3.17803
G1 X100.000 Y102.248 E3.25243
G1 X99.305 Y102.138 E3.33600
G1 X98.746 Y101.857 E3.41031
G1 X98.622 Y101.766 E3.42858
G1 X98.181 Y101.321 E3.50298
G1 X97.895 Y100.766 E3.57720
G1 X97.847 Y100.619 E3.59550
G1 X97.752 Y100.000 E3.66990
;LAYER:1
G1 Z0.700 F12000.000
G1 E1.66990 F2400.00000
G92 E0
G1 X101.365 Y101.365 F12000.000
G1 E2.00000 F2400.00000
G1 X101.149 Y101.582 E2.01281 F1009.638
G1 X100.605 Y101.860 E2.03839
G1 X100.000 Y101.955 E2.06402
G1 X99.395 Y101.860 E2.08965
G1 X98.851 Y101.582 E2.11523
G1 X98.418 Y101.149 E2.14085
G1 X98.140 Y100.605 E2.16643
G1 X98.044 Y100.000 E2.19206
G1 X98.140 Y99.395 E2.21769
G1 X98.418 Y98.851 E2.24327
G1 X98.851 Y98.418 E2.26889
G1 X99.395 Y98.140 E2.29447
G1 X100.000 Y98.044 E2.32010 F1009.638
G1 X100.605 Y98.140 E2.34573
G1 X101.149 Y98.418 E2.37131
G1 X101.582 Y98.851 E2.39693
G1 X101.860 Y99.395 E2.42251
G1 X101.955 Y100.000 E2.44814
G1 X101.860 Y100.605 E2.47377
G1 X101.582 Y101.149 E2.49935
G1 X101.408 Y101.323 E2.50965
G1 X101.445 Y101.661 F12000.000
G1 X101.779 Y101.779 F12000.000
G1 X101.497 Y102.061 E2.52635 F1009.638
G1 X100.787 Y102.422 E2.55968
G1 X100.000 Y102.547 E2.59305
G1 X99.213 Y102.422 E2.62643
G1 X98.503 Y102.061 E2.65976
G1 X97.939 Y101.497 E2.69316
G1 X97.578 Y100.787 E2.72649
G1 X97.453 Y100.000 E2.75987
G1 X97.578 Y99.213 E2.79324
G1 X97.939 Y98.503 E2.82657
G1 X98.503 Y97.939 E2.85997
G1 X99.213 Y97.578 E2.89330
G1 X100.000 Y97.453 E2.92668
G1 X100.776 Y97.576 E2.95957
G1 X101.497 Y97.939 E2.99338 F1009.638
G1 X102.061 Y98.503 E3.02676
G1 X102.422 Y99.213 E3.06009
G1 X102.547 Y100.000 E3.09346
G1 X102.422 Y100.787 E3.12684
G1 X102.061 Y101.497 E3.16017
G1 X101.822 Y101.737 E3.17436
G1 X101.394 Y101.676 F12000.000
G1 X101.572 Y101.572 F12000.000
G1 X101.323 Y101.821 E3.19277 F600.000
G1 X100.696 Y102.140 E3.22952
G1 X100.000 Y102.251 E3.26633
G1 X99.304 Y102.140 E3.30313
G1 X98.677 Y101.821 E3.33989
G1 X98.179 Y101.323 E3.37671
G1 X97.860 Y100.696 E3.41347
G1 X97.751 Y99.984 E3.45110
G1 X97.860 Y99.304 E3.48705 F600.000
G1 X98.171 Y98.691 E3.52296
G1 X98.677 Y98.179 E3.56060
G1 X99.320 Y97.856 E3.59816
G1 X100.000 Y97.749 E3.63413
G1 X100.685 Y97.857 E3.67037
G1 X101.335 Y98.190 E3.70850
G1 X101.821 Y98.677 E3.74446
G1 X102.140 Y99.304 E3.78122
G1 X102.251 Y100.000 E3.81802
G1 X102.140 Y100.696 E3.85483
G1 X101.821 Y101.323 E3.89158
G1 X101.615 Y101.530 E3.90686
;LAYER:2
G1 Z1.000 F12000.000
G1 X101.365 Y101.365 F12000.000
G1 X101.149 Y101.582 E3.91967 F1009.625
G1 X100.605 Y101.860 E3.94525
G1 X100.000 Y101.955 E3.97088
G1 X99.395 Y101.860 E3.99651
G1 X98.851 Y101.582 E4.02209
G1 X98.418 Y101.149 E4.04771
G1 X98.140 Y100.605 E4.07329
G1 X98.044 Y100.000 E4.09892
G1 X98.140 Y99.395 E4.12455
G1 X98.418 Y98.851 E4.15013
G1 X98.851 Y98.418 E4.17575
G1 X99.395 Y98.140 E4.20133
G1 X99.988 Y98.046 E4.22644 F1009.625
G1 X100.604 Y98.140 E4.25254
G1 X101.149 Y98.418 E4.27815
G1 X101.582 Y98.851 E4.30376
G1 X101.860 Y99.395 E4.32935
G1 X101.955 Y100.000 E4.35498
G1 X101.860 Y100.605 E4.38060
G1 X101.582 Y101.149 E4.40619
G1 X101.408 Y101.323 E4.41648
G1 X101.445 Y101.661 F12000.000
G1 X101.779 Y101.779 F12000.000
G1 X101.497 Y102.061 E4.43318 F1009.625
G1 X100.787 Y102.422 E4.46651
G1 X100.000 Y102.547 E4.49989
G1 X99.213 Y102.422 E4.53326
G1 X98.503 Y102.061 E4.56660
G1 X97.939 Y101.497 E4.59999
G1 X97.578 Y100.787 E4.63332
G1 X97.453 Y100.000 E4.66670
G1 X97.578 Y99.213 E4.70007
G1 X97.939 Y98.503 E4.73341
G1 X98.503 Y97.939 E4.76680
G1 X99.213 Y97.578 E4.80014
G1 X100.000 Y97.453 E4.83351
G1 X100.770 Y97.575 E4.86615
G1 X101.497 Y97.939 E4.90021 F1009.625
G1 X102.061 Y98.503 E4.93358
G1 X102.422 Y99.213 E4.96691
G1 X102.547 Y100.000 E5.00028
G1 X102.422 Y100.787 E5.03366
G1 X102.061 Y101.497 E5.06699
G1 X101.822 Y101.737 E5.08118
G1 X101.394 Y101.676 F12000.000
G1 X101.572 Y101.572 F12000.000
G1 X101.323 Y101.821 E5.09959 F600.000
G1 X100.696 Y102.140 E5.13634
G1 X100.000 Y102.251 E5.17315
G1 X99.304 Y102.140 E5.20995
G1 X98.677 Y101.821 E5.24671
G1 X98.179 Y101.323 E5.28353
G1 X97.860 Y100.696 E5.32029
G1 X97.749 Y100.000 E5.35709
G1 X97.860 Y99.304 E5.39390 F600.000
G1 X98.171 Y98.691 E5.42982
G1 X98.677 Y98.179 E5.46745
G1 X99.320 Y97.856 E5.50501
G1 X100.000 Y97.751 E5.54097
G1 X100.680 Y97.856 E5.57690
G1 X101.335 Y98.190 E5.61532
G1 X101.821 Y98.677 E5.65128
G1 X102.140 Y99.304 E5.68803
G1 X102.251 Y100.000 E5.72484
G1 X102.140 Y100.696 E5.76164
G1 X101.821 Y101.323 E5.79840
G1 X101.615 Y101.530 E5.81368
M106 S127.5
;LAYER:3
G1 Z1.300 F12000.000
G1 X101.365 Y101.365 F12000.000
G1 X101.149 Y101.582 E5.82649 F1009.596
G1 X100.605 Y101.860 E5.85207
G1 X100.000 Y101.955 E5.87770
G1 X99.395 Y101.860 E5.90332
G1 X98.851 Y101.582 E5.92891
G1 X98.418 Y101.149 E5.95453
G1 X98.140 Y100.605 E5.98011
G1 X98.044 Y100.000 E6.00574
G1 X98.140 Y99.395 E6.03137
G1 X98.418 Y98.851 E6.05695
G1 X98.851 Y98.418 E6.08257
G1 X99.395 Y98.140 E6.10815
G1 X99.984 Y98.047 E6.13308 F1009.596
G1 X100.604 Y98.140 E6.15934
G1 X101.149 Y98.418 E6.18496
G1 X101.582 Y98.851 E6.21057
G1 X101.860 Y99.395 E6.23616
G1 X101.955 Y100.000 E6.26179
G1 X101.860 Y100.605 E6.28741
G1 X101.582 Y101.149 E6.31300
G1 X101.408 Y101.323 E6.32330
G1 X101.445 Y101.661 F12000.000
G1 X101.779 Y101.779 F12000.000
G1 X101.497 Y102.061 E6.33999 F1009.596
G1 X100.787 Y102.422 E6.37333
G1 X100.000 Y102.547 E6.40670
G1 X99.213 Y102.422 E6.44008
G1 X98.503 Y102.061 E6.47341
G1 X97.939 Y101.497 E6.50680
G1 X97.578 Y100.787 E6.54014
G1 X97.453 Y100.000 E6.57351
G1 X97.578 Y99.213 E6.60689
G1 X97.939 Y98.503 E6.64022
G1 X98.503 Y97.939 E6.67361
G1 X99.213 Y97.578 E6.70695
G1 X100.000 Y97.453 E6.74032
G1 X100.764 Y97.574 E6.77270
G1 X101.498 Y97.939 E6.80701 F1009.596
G1 X102.061 Y98.503 E6.84038
G1 X102.422 Y99.213 E6.87371
G1 X102.547 Y100.000 E6.90708
G1 X102.422 Y100.787 E6.94046
G1 X102.061 Y101.497 E6.97379
G1 X101.822 Y101.737 E6.98798
G1 X101.394 Y101.676 F12000.000
G1 X101.572 Y101.572 F12000.000
G1 X101.323 Y101.821 E7.00639 F600.000
G1 X100.696 Y102.140 E7.04314
G1 X100.000 Y102.251 E7.07995
G1 X99.304 Y102.140 E7.11675
G1 X98.677 Y101.821 E7.15351
G1 X98.179 Y101.323 E7.19033
G1 X97.860 Y100.696 E7.22709
G1 X97.749 Y100.000 E7.26389
G1 X97.860 Y99.304 E7.30070 F600.000
G1 X98.171 Y98.691 E7.33662
G1 X98.677 Y98.179 E7.37425
G1 X99.320 Y97.856 E7.41181
G1 X100.000 Y97.751 E7.44776
G1 X100.677 Y97.856 E7.48358
G1 X101.335 Y98.190 E7.52210
G1 X101.821 Y98.677 E7.55805
G1 X102.140 Y99.304 E7.59481
G1 X102.251 Y100.000 E7.63161
G1 X102.140 Y100.696 E7.66842
G1 X101.821 Y101.323 E7.70517
G1 X101.615 Y101.530 E7.72045
;LAYER:4
G1 Z1.600 F12000.000
G1 X101.365 Y101.365 F12000.000
G1 X101.149 Y101.582 E7.73326 F1009.568
G1 X100.605 Y101.860 E7.75884
G1 X100.000 Y101.955 E7.78447
G1 X99.395 Y101.860 E7.81010
G1 X98.851 Y101.582 E7.83568
G1 X98.418 Y101.149 E7.86130
G1 X98.140 Y100.605 E7.88688
G1 X98.044 Y100.000 E7.91251
G1 X98.140 Y99.395 E7.93814
G1 X98.418 Y98.851 E7.96372
G1 X98.851 Y98.418 E7.98934
G1 X99.395 Y98.140 E8.01492
G1 X99.979 Y98.048 E8.03967 F1009.568
G1 X100.604 Y98.140 E8.06609
G1 X101.149 Y98.418 E8.09172
G1 X101.582 Y98.851 E8.11734
G1 X101.860 Y99.395 E8.14292
G1 X101.955 Y100.000 E8.16855
G1 X101.860 Y100.605 E8.19418
G1 X101.582 Y101.149 E8.21976
G1 X101.408 Y101.323 E8.23006
G1 X101.445 Y101.661 F12000.000
G1 X101.779 Y101.779 F12000.000
G1 X101.497 Y102.061 E8.24676 F1009.568
G1 X100.787 Y102.422 E8.28009
G1 X100.000 Y102.547 E8.31347
G1 X99.213 Y102.422 E8.34684
G1 X98.503 Y102.061 E8.38017
G1 X97.939 Y101.497 E8.41357
G1 X97.578 Y100.787 E8.44690
G1 X97.453 Y100.000 E8.48028
G1 X97.578 Y99.213 E8.51365
G1 X97.939 Y98.503 E8.54698
G1 X98.503 Y97.939 E8.58038
G1 X99.213 Y97.578 E8.61371
G1 X100.000 Y97.453 E8.64709
G1 X100.758 Y97.573 E8.67920
G1 X101.498 Y97.940 E8.71378 F1009.568
G1 X102.061 Y98.503 E8.74713
G1 X102.422 Y99.213 E8.78046
G1 X102.547 Y100.000 E8.81384
G1 X102.422 Y100.787 E8.84721
G1 X102.061 Y101.497 E8.88054
G1 X101.822 Y101.737 E8.89473
G1 X101.394 Y101.676 F12000.000
G1 X101.572 Y101.572 F12000.000
G1 X101.323 Y101.821 E8.91314 F600.000
G1 X100.696 Y102.140 E8.94990
G1 X100.000 Y102.251 E8.98670
G1 X99.304 Y102.140 E9.02351
G1 X98.677 Y101.821 E9.06026
G1 X98.179 Y101.323 E9.09709
G1 X97.860 Y100.696 E9.13384
G1 X97.749 Y100.000 E9.17065
G1 X97.860 Y99.304 E9.20745 F600.000
G1 X98.171 Y98.691 E9.24337
G1 X98.677 Y98.179 E9.28100
G1 X99.320 Y97.856 E9.31856
G1 X100.000 Y97.752 E9.35451
G1 X100.677 Y97.857 E9.39029
G1 X101.335 Y98.190 E9.42883
G1 X101.821 Y98.677 E9.46478
G1 X102.140 Y99.304 E9.50154
G1 X102.251 Y100.000 E9.53834
G1 X102.140 Y100.696 E9.57515
G1 X101.821 Y101.323 E9.61190
G1 X101.615 Y101.530 E9.62718
;LAYER:5
G1 Z1.900 F12000.000
G1 X101.365 Y101.365 F12000.000
G1 X101.149 Y101.582 E9.63999 F1009.540
G1 X100.605 Y101.860 E9.66557
G1 X100.000 Y101.955 E9.69120
G1 X99.395 Y101.860 E9.71683
G1 X98.851 Y101.582 E9.74241
G1 X98.418 Y101.149 E9.76803
G1 X98.140 Y100.605 E9.79361
G1 X98.044 Y100.000 E9.81924
G1 X98.140 Y99.395 E9.84487
G1 X98.418 Y98.851 E9.87045
G1 X98.851 Y98.418 E9.89607
G1 X99.395 Y98.140 E9.92165
G1 X99.975 Y98.048 E9.94622 F1009.540
G1 X100.603 Y98.140 E9.97281
G1 X101.149 Y98.418 E9.99845
G1 X101.582 Y98.851 E10.02406
G1 X101.860 Y99.395 E10.04965
G1 X101.955 Y100.000 E10.07527
G1 X101.860 Y100.605 E10.10090
G1 X101.582 Y101.149 E10.12649
G1 X101.408 Y101.323 E10.13678
G1 X101.445 Y101.661 F12000.000
G1 X101.779 Y101.779 F12000.000
G1 X101.497 Y102.061 E10.15348 F1009.540
G1 X100.787 Y102.422 E10.18681
G1 X100.000 Y102.547 E10.22019
G1 X99.213 Y102.422 E10.25356
G1 X98.503 Y102.061 E10.28689
G1 X97.939 Y101.497 E10.32029
G1 X97.578 Y100.787 E10.35362
G1 X97.453 Y100.000 E10.38700
G1 X97.578 Y99.213 E10.42037
G1 X97.939 Y98.503 E10.45370
G1 X98.503 Y97.939 E10.48710
G1 X99.213 Y97.578 E10.52043
G1 X100.000 Y97.453 E10.55381
G1 X100.752 Y97.572 E10.58566
G1 X101.498 Y97.940 E10.62050 F1009.540
G1 X102.061 Y98.503 E10.65384
G1 X102.422 Y99.213 E10.68717
G1 X102.547 Y100.000 E10.72054
G1 X102.422 Y100.787 E10.75392
G1 X102.061 Y101.497 E10.78725
G1 X101.822 Y101.737 E10.80144
G1 X101.394 Y101.676 F12000.000
G1 X101.572 Y101.572 F12000.000
G1 X101.323 Y101.821 E10.81985 F600.000
G1 X100.696 Y102.140 E10.85661
G1 X100.000 Y102.251 E10.89341
G1 X99.304 Y102.140 E10.93022
G1 X98.677 Y101.821 E10.96697
G1 X98.179 Y101.323 E11.00380
G1 X97.860 Y100.696 E11.04055
G1 X97.749 Y100.000 E11.07736
G1 X97.860 Y99.304 E11.11416 F600.000
G1 X98.171 Y98.691 E11.15008
G1 X98.677 Y98.179 E11.18771
G1 X99.320 Y97.856 E11.22527
G1 X100.000 Y97.753 E11.26121
G1 X100.676 Y97.858 E11.29695
G1 X101.335 Y98.190 E11.33551
G1 X101.821 Y98.677 E11.37147
G1 X102.140 Y99.304 E11.40822
G1 X102.251 Y100.000 E11.44503
G1 X102.140 Y100.696 E11.48183
G1 X101.821 Y101.323 E11.51859
G1 X101.615 Y101.530 E11.53387
;LAYER:6
G1 Z2.200 F12000.000
G1 X101.365 Y101.365 F12000.000
G1 X101.149 Y101.582 E11.54667 F1009.610
G1 X100.605 Y101.860 E11.57226
G1 X100.000 Y101.955 E11.59789
G1 X99.395 Y101.860 E11.62351
