; generated by Slic3r 1.2.9 on 2018-10-06 at 11:50:28

; external perimeters extrusion width = 0.40mm
; perimeters extrusion width = 0.67mm
; infill extrusion width = 0.67mm
; solid infill extrusion width = 0.67mm
; top infill extrusion width = 0.67mm

M190 S60 ; set bed temperature
M104 S210 ; set temperature

M109 S210 ; wait for temperature to be reached
G21 ; set units to millimeters
G90 ; use absolute coordinates
M82 ; use absolute distances for extrusion
G92 E0
;LAYER:0
G1 Z0.400 F7800.000
G1 E-2.00000 F2400.00000
G92 E0
G1 X53.245 Y29.964 F7800.000
G1 E2.00000 F2400.00000
G1 X53.620 Y29.330 E2.08751 F1800.000
G1 X54.121 Y28.601 E2.19250
G1 X54.680 Y27.904 E2.29863
G1 X55.087 Y27.457 E2.37052
G1 X55.713 Y26.845 E2.47437
G1 X56.161 Y26.458 E2.54472
G1 X56.651 Y26.071 E2.61889
G1 X57.389 Y25.564 E2.72517
G1 X58.152 Y25.118 E2.83013
G1 X58.955 Y24.723 E2.93645
G1 X59.785 Y24.388 E3.04272
G1 X60.221 Y24.241 E3.09738
G1 X61.062 Y24.005 E3.20119
G1 X61.641 Y23.879 E3.27155
G1 X62.388 Y23.758 E3.36136
G1 X63.280 Y23.677 E3.46781
G1 X63.950 Y23.658 E3.54738
G1 X136.075 Y23.658 E12.11330
G1 X136.721 Y23.677 E12.19003 F1800.000
G1 X137.215 Y23.715 E12.24886
G1 X137.610 Y23.758 E12.29616
G1 X138.495 Y23.905 E12.40267
G1 X139.211 Y24.075 E12.49008
G1 X139.779 Y24.241 E12.56036
G1 X140.214 Y24.388 E12.61493
G1 X140.863 Y24.645 E12.69774
G1 X141.849 Y25.118 E12.82761
G1 X142.416 Y25.445 E12.90540
G1 X142.914 Y25.765 E12.97568
G1 X143.357 Y26.078 E13.04014
G1 X143.840 Y26.458 E13.11306
G1 X144.287 Y26.845 E13.18333
G1 X144.703 Y27.240 E13.25148
G1 X145.105 Y27.663 E13.32076
G1 X145.492 Y28.110 E13.39103
G1 X145.872 Y28.592 E13.46391
G1 X146.185 Y29.036 E13.52841
G1 X146.505 Y29.534 E13.59869
G1 X146.833 Y30.104 E13.67683
G1 X147.305 Y31.087 E13.80636
G1 X147.561 Y31.732 E13.88866
G1 X147.709 Y32.171 E13.94374
G1 X147.875 Y32.739 E14.01399
G1 X148.045 Y33.455 E14.10145
G1 X148.192 Y34.338 E14.20776
G1 X148.235 Y34.735 E14.25519
G1 X148.292 Y35.800 E14.38187
G1 X148.292 Y164.101 E29.61948
G1 X148.273 Y164.772 E29.69924
G1 X148.235 Y165.265 E29.75795
G1 X148.192 Y165.661 E29.80532
G1 X148.071 Y166.409 E29.89528
G1 X147.836 Y167.410 E30.01736
G1 X147.561 Y168.268 E30.12442
G1 X147.305 Y168.913 E30.20676
G1 X147.059 Y169.451 E30.27707
G1 X146.649 Y170.223 E30.38087
G1 X146.377 Y170.675 E30.44360
G1 X146.024 Y171.196 E30.51826
G1 X145.670 Y171.670 E30.58854
G1 X145.315 Y172.102 E30.65495
G1 X144.706 Y172.757 E30.76119
G1 X144.046 Y173.370 E30.86813
G1 X143.620 Y173.719 E30.93361
G1 X143.146 Y174.074 E31.00388
G1 X142.623 Y174.428 E31.07890
G1 X142.173 Y174.700 E31.14135
G1 X141.401 Y175.109 E31.24511
G1 X140.863 Y175.355 E31.31538
G1 X140.217 Y175.611 E31.39783
G1 X139.360 Y175.886 E31.50477
G1 X138.359 Y176.121 E31.62685
G1 X137.611 Y176.242 E31.71684
G1 X137.214 Y176.285 E31.76427
G1 X136.715 Y176.323 E31.82372
G1 X136.051 Y176.342 E31.90260
G1 X63.949 Y176.342 E40.46590
G1 X63.271 Y176.323 E40.54642
G1 X62.385 Y176.241 E40.65211
G1 X61.641 Y176.121 E40.74155
G1 X61.063 Y175.995 E40.81186
G1 X60.220 Y175.759 E40.91581
G1 X59.785 Y175.612 E40.97031
G1 X58.955 Y175.277 E41.07666
G1 X58.146 Y174.879 E41.18367
G1 X57.389 Y174.436 E41.28788
G1 X56.649 Y173.927 E41.39461
G1 X56.161 Y173.543 E41.46837
G1 X55.713 Y173.154 E41.53877
G1 X55.088 Y172.544 E41.64257
G1 X54.680 Y172.096 E41.71451
G1 X54.128 Y171.408 E41.81926
G1 X53.621 Y170.671 E41.92546
G1 X53.351 Y170.223 E41.98758
G1 X52.941 Y169.451 E42.09138
G1 X52.695 Y168.912 E42.16175
G1 X52.435 Y168.255 E42.24572
G1 X52.162 Y167.403 E42.35189
G1 X51.954 Y166.543 E42.45708
G1 X51.808 Y165.662 E42.56310
G1 X51.727 Y164.770 E42.66951
G1 X51.708 Y164.100 E42.74907
G1 X51.708 Y35.864 E57.97908
G1 X51.727 Y35.230 E58.05442
G1 X51.808 Y34.338 E58.16070
G1 X51.955 Y33.456 E58.26696
G1 X52.124 Y32.739 E58.35440
G1 X52.291 Y32.171 E58.42479
G1 X52.587 Y31.348 E58.52860
G1 X52.941 Y30.549 E58.63244
G1 X53.216 Y30.016 E58.70359
G1 X53.868 Y30.314 F7800.000
G1 X54.224 Y29.711 E58.78677 F1800.000
G1 X54.695 Y29.027 E58.88549
G1 X55.221 Y28.370 E58.98536
G1 X55.610 Y27.943 E59.05400
G1 X56.199 Y27.368 E59.15179
G1 X56.609 Y27.014 E59.21609
G1 X57.076 Y26.645 E59.28681
G1 X57.770 Y26.168 E59.38682
G1 X58.487 Y25.748 E59.48551
G1 X59.243 Y25.377 E59.58556
G1 X60.024 Y25.061 E59.68556
G1 X60.446 Y24.919 E59.73848
G1 X61.239 Y24.697 E59.83624
G1 X61.768 Y24.582 E59.90054
G1 X62.473 Y24.467 E59.98540
G1 X63.313 Y24.390 E60.08557
G1 X63.950 Y24.372 E60.16123
G1 X136.073 Y24.372 E68.72689
G1 X137.138 Y24.425 E68.85360 F1800.000
G1 X137.525 Y24.467 E68.89980
G1 X138.357 Y24.606 E69.00002
G1 X139.035 Y24.767 E69.08271
G1 X139.554 Y24.919 E69.14693
G1 X139.975 Y25.061 E69.19976
G1 X140.589 Y25.305 E69.27826
G1 X141.513 Y25.748 E69.39990
G1 X142.052 Y26.059 E69.47381
G1 X142.507 Y26.351 E69.53803
G1 X142.932 Y26.652 E69.59989
G1 X143.392 Y27.014 E69.66935
G1 X144.206 Y27.752 E69.79991
G1 X144.771 Y28.360 E69.89851
G1 X145.113 Y28.778 E69.96268
G1 X145.437 Y29.211 E70.02690
G1 X145.775 Y29.709 E70.09837
G1 X146.294 Y30.616 E70.22242
G1 X146.573 Y31.193 E70.29857
G1 X146.753 Y31.622 E70.35379
G1 X146.942 Y32.128 E70.41801
G1 X147.147 Y32.779 E70.49898
G1 X147.347 Y33.603 E70.59974
G1 X147.483 Y34.424 E70.69853
G1 X147.525 Y34.812 E70.74484
G1 X147.560 Y35.262 E70.79855
G1 X147.578 Y35.899 E70.87423
G1 X147.578 Y164.101 E86.10008
G1 X147.560 Y164.739 E86.17590
G1 X147.525 Y165.188 E86.22946
G1 X147.483 Y165.576 E86.27573
G1 X147.368 Y166.282 E86.36074
G1 X147.147 Y167.221 E86.47528
G1 X146.888 Y168.028 E86.57599
G1 X146.645 Y168.639 E86.65406
G1 X146.421 Y169.131 E86.71831
G1 X146.203 Y169.561 E86.77548
G1 X145.891 Y170.102 E86.84963
G1 X145.304 Y170.975 E86.97459
G1 X144.768 Y171.643 E87.07638
G1 X144.007 Y172.440 E87.20717
G1 X143.588 Y172.822 E87.27455
G1 X143.172 Y173.163 E87.33848
G1 X142.507 Y173.649 E87.43623
G1 X142.051 Y173.941 E87.50054
G1 X141.515 Y174.250 E87.57400
G1 X140.747 Y174.628 E87.67573
G1 X139.822 Y174.992 E87.79373
G1 X139.171 Y175.197 E87.87478
G1 X138.761 Y175.303 E87.92514
G1 X138.233 Y175.418 E87.98934
G1 X137.526 Y175.533 E88.07438
G1 X136.683 Y175.610 E88.17492
G1 X136.051 Y175.628 E88.24994
G1 X63.949 Y175.628 E96.81323
G1 X63.305 Y175.609 E96.88975
G1 X62.471 Y175.532 E96.98921
G1 X61.768 Y175.418 E97.07375
G1 X61.239 Y175.303 E97.13801
G1 X60.446 Y175.081 E97.23590
G1 X60.025 Y174.939 E97.28866
G1 X59.243 Y174.623 E97.38874
G1 X58.483 Y174.249 E97.48941
G1 X57.771 Y173.832 E97.58742
G1 X57.074 Y173.353 E97.68785
G1 X56.609 Y172.987 E97.75818
G1 X56.199 Y172.632 E97.82253
G1 X55.610 Y172.057 E97.92027
G1 X55.221 Y171.630 E97.98896
G1 X54.702 Y170.983 E98.08746
G1 X54.224 Y170.290 E98.18740
G1 X53.965 Y169.859 E98.24712
G1 X53.580 Y169.132 E98.34487
G1 X53.355 Y168.639 E98.40918
G1 X53.107 Y168.016 E98.48884
G1 X52.851 Y167.214 E98.58875
G1 X52.655 Y166.405 E98.68765
G1 X52.517 Y165.576 E98.78743
G1 X52.440 Y164.737 E98.88755
G1 X52.422 Y164.100 E98.96320
G1 X52.422 Y35.867 E114.19285
G1 X52.440 Y35.263 E114.26463
G1 X52.517 Y34.424 E114.36464
G1 X52.655 Y33.594 E114.46464
G1 X52.816 Y32.916 E114.54735
G1 X52.969 Y32.396 E114.61168
G1 X53.247 Y31.621 E114.70943
G1 X53.580 Y30.868 E114.80722
G1 X53.838 Y30.367 E114.87425
G1 X54.490 Y30.664 F7800.000
G1 X54.828 Y30.093 E114.95311 F1800.000
G1 X55.269 Y29.452 E115.04556
G1 X55.762 Y28.836 E115.13917
G1 X56.133 Y28.430 E115.20456
G1 X56.686 Y27.891 E115.29630
G1 X57.057 Y27.570 E115.35454
G1 X57.502 Y27.219 E115.42181
G1 X58.152 Y26.772 E115.51555
G1 X58.823 Y26.378 E115.60797
G1 X59.532 Y26.030 E115.70174
G1 X60.263 Y25.734 E115.79548
G1 X60.672 Y25.596 E115.84665
G1 X61.416 Y25.389 E115.93836
G1 X61.895 Y25.285 E115.99661
G1 X62.559 Y25.176 E116.07653
G1 X63.346 Y25.104 E116.17041
G1 X63.950 Y25.086 E116.24216
G1 X136.070 Y25.086 E124.80756
G1 X137.062 Y25.135 E124.92545 F1800.000
G1 X137.439 Y25.176 E124.97056
G1 X138.220 Y25.306 E125.06449
G1 X138.858 Y25.459 E125.14245
G1 X139.328 Y25.596 E125.20062
G1 X139.736 Y25.734 E125.25172
G1 X140.316 Y25.965 E125.32589
G1 X141.177 Y26.379 E125.43930
G1 X141.687 Y26.673 E125.50933
G1 X142.099 Y26.938 E125.56750
G1 X142.507 Y27.225 E125.62676
G1 X142.943 Y27.570 E125.69277
G1 X143.701 Y28.257 E125.81424
G1 X144.230 Y28.827 E125.90659
G1 X144.557 Y29.226 E125.96793
G1 X145.171 Y30.091 E126.09389
G1 X145.655 Y30.936 E126.20948
G1 X145.920 Y31.482 E126.28153
G1 X146.094 Y31.895 E126.33479
G1 X146.265 Y32.354 E126.39296
G1 X146.458 Y32.967 E126.46937
G1 X146.646 Y33.741 E126.56390
G1 X146.774 Y34.509 E126.65642
G1 X146.815 Y34.888 E126.70163
G1 X146.864 Y35.899 E126.82190
G1 X146.864 Y164.101 E142.04775
G1 X146.846 Y164.706 E142.11963
G1 X146.774 Y165.490 E142.21320
G1 X146.665 Y166.155 E142.29326
G1 X146.561 Y166.635 E142.35148
G1 X146.459 Y167.032 E142.40027
G1 X146.265 Y167.646 E142.47672
G1 X145.920 Y168.518 E142.58803
G1 X145.572 Y169.225 E142.68163
G1 X145.277 Y169.737 E142.75188
G1 X145.012 Y170.149 E142.81005
G1 X144.724 Y170.558 E142.86944
G1 X144.380 Y170.993 E142.93532
G1 X143.696 Y171.748 E143.05632
G1 X142.944 Y172.430 E143.17690
G1 X142.508 Y172.774 E143.24274
G1 X142.099 Y173.062 E143.30217
G1 X141.687 Y173.327 E143.36041
G1 X141.179 Y173.620 E143.43004
G1 X140.468 Y173.970 E143.52421
G1 X139.597 Y174.314 E143.63546
G1 X138.983 Y174.508 E143.71194
G1 X138.584 Y174.611 E143.76080
G1 X138.106 Y174.715 E143.81895
G1 X137.440 Y174.824 E143.89904
G1 X136.650 Y174.897 E143.99326
G1 X136.051 Y174.914 E144.06441
G1 X63.949 Y174.914 E152.62771
G1 X63.338 Y174.896 E152.70021
G1 X62.557 Y174.823 E152.79346
G1 X61.895 Y174.715 E152.87309
G1 X61.416 Y174.611 E152.93129
G1 X60.671 Y174.403 E153.02312
G1 X60.264 Y174.266 E153.07416
G1 X59.532 Y173.970 E153.16796
G1 X58.819 Y173.619 E153.26230
G1 X58.152 Y173.228 E153.35411
G1 X57.499 Y172.779 E153.44822
G1 X57.057 Y172.430 E153.51514
G1 X56.686 Y172.109 E153.57343
G1 X56.133 Y171.570 E153.66512
G1 X55.762 Y171.163 E153.73055
G1 X55.276 Y170.557 E153.82280
G1 X54.828 Y169.908 E153.91647
G1 X54.579 Y169.494 E153.97380
G1 X54.218 Y168.812 E154.06550
G1 X54.014 Y168.366 E154.12376
G1 X53.780 Y167.776 E154.19910
G1 X53.540 Y167.025 E154.29275
G1 X53.356 Y166.267 E154.38536
G1 X53.226 Y165.491 E154.47889
G1 X53.154 Y164.704 E154.57274
G1 X53.136 Y164.100 E154.64448
G1 X53.136 Y35.870 E169.87376
G1 X53.154 Y35.296 E169.94198
G1 X53.226 Y34.510 E170.03573
G1 X53.356 Y33.731 E170.12945
G1 X53.508 Y33.093 E170.20743
G1 X53.646 Y32.622 E170.26571
G1 X53.907 Y31.895 E170.35741
G1 X54.080 Y31.482 E170.41060
G1 X54.460 Y30.717 E170.51207
G1 E168.51207 F2400.00000
G92 E0
G1 X129.595 Y48.414 F7800.000
G1 E2.00000 F2400.00000
G1 X137.886 Y56.704 E3.39917 F1800.000
G1 X137.886 Y57.719 E3.52027
G1 X130.009 Y49.842 E4.84962
G1 X130.014 Y50.862 E4.97130
G1 X137.886 Y58.734 E6.29983
G1 X137.886 Y59.749 E6.42093
G1 X130.014 Y51.876 E7.74946
G1 X130.014 Y52.891 E7.87056
G1 X137.886 Y60.764 E9.19910
G1 X137.886 Y61.778 E9.32019
G1 X130.014 Y53.906 E10.64873
G1 X130.014 Y54.921 E10.76983
G1 X137.886 Y62.793 E12.09836
G1 X137.886 Y63.808 E12.21946
G1 X130.014 Y55.936 E13.54799
G1 X130.014 Y56.950 E13.66909
G1 X137.886 Y64.823 E14.99762
G1 X137.886 Y65.838 E15.11872
G1 X130.014 Y57.965 E16.44726
G1 X130.014 Y58.980 E16.56835
G1 X137.886 Y66.852 E17.89689
G1 X137.886 Y67.867 E18.01799
G1 X130.014 Y59.995 E19.34652
G1 X130.014 Y61.010 E19.46762
G1 X137.886 Y68.882 E20.79615
G1 X137.886 Y69.897 E20.91725
G1 X130.014 Y62.024 E22.24578
G1 X130.014 Y63.039 E22.36688
G1 X137.886 Y70.911 E23.69542
G1 X137.886 Y71.926 E23.81651
G1 X130.014 Y64.054 E25.14505
G1 X130.014 Y65.069 E25.26615
G1 X137.886 Y72.941 E26.59468
G1 X137.886 Y73.956 E26.71578
G1 X130.014 Y66.084 E28.04431
G1 X130.014 Y67.098 E28.16541
G1 X137.886 Y74.971 E29.49394
G1 X137.886 Y75.985 E29.61504
G1 X130.014 Y68.113 E30.94358
G1 X130.014 Y69.128 E31.06467
G1 X137.886 Y77.000 E32.39321
G1 X137.886 Y78.015 E32.51431
G1 X130.014 Y70.143 E33.84284
G1 X130.014 Y71.157 E33.96394
G1 X137.886 Y79.030 E35.29247
G1 X137.886 Y80.045 E35.41357
G1 X130.014 Y72.172 E36.74211
G1 X130.014 Y73.187 E36.86320
G1 X137.886 Y81.059 E38.19174
G1 X137.886 Y82.074 E38.31283
G1 X130.014 Y74.202 E39.64137
G1 X130.014 Y75.217 E39.76247
G1 X137.886 Y83.089 E41.09100
G1 X137.886 Y84.104 E41.21210
G1 X130.014 Y76.231 E42.54063
G1 X130.014 Y77.246 E42.66173
G1 X137.886 Y85.119 E43.99027
G1 X137.886 Y86.133 E44.11136
G1 X130.014 Y78.261 E45.43990
G1 X130.014 Y79.276 E45.56100
G1 X137.886 Y87.148 E46.88953
G1 X137.886 Y88.163 E47.01063
G1 X130.014 Y80.291 E48.33916
G1 X130.014 Y81.305 E48.46026
G1 X137.886 Y89.178 E49.78880
G1 X137.886 Y90.193 E49.90989
G1 X130.014 Y82.320 E51.23843
G1 X130.014 Y83.335 E51.35952
G1 X137.886 Y91.207 E52.68806
G1 X137.886 Y92.222 E52.80916
G1 X130.014 Y84.350 E54.13769
G1 X130.014 Y85.365 E54.25879
G1 X137.886 Y93.237 E55.58732
G1 X137.886 Y94.252 E55.70842
G1 X130.014 Y86.379 E57.03696
G1 X130.014 Y87.394 E57.15805
G1 X137.886 Y95.266 E58.48659
G1 X137.886 Y96.281 E58.60769
G1 X130.014 Y88.409 E59.93622
G1 X130.014 Y89.424 E60.05732
G1 X137.886 Y97.296 E61.38585
G1 X137.886 Y98.311 E61.50695
G1 X130.014 Y90.439 E62.83549
G1 X130.014 Y91.453 E62.95658
G1 X137.886 Y99.326 E64.28512
G1 X137.886 Y100.340 E64.40621
G1 X130.014 Y92.468 E65.73475
G1 X130.014 Y93.483 E65.85585
G1 X137.886 Y101.355 E67.18438
G1 X137.886 Y102.370 E67.30548
G1 X130.014 Y94.498 E68.63402
G1 X130.014 Y95.512 E68.75511
G1 X137.886 Y103.385 E70.08365
G1 X137.886 Y104.400 E70.20474
G1 X130.014 Y96.527 E71.53328
G1 X130.014 Y97.542 E71.65438
G1 X137.886 Y105.414 E72.98291
G1 X137.886 Y106.429 E73.10401
G1 X130.014 Y98.557 E74.43254
G1 X130.014 Y99.572 E74.55364
G1 X137.886 Y107.444 E75.88218
G1 X137.886 Y108.459 E76.00327
G1 X130.014 Y100.586 E77.33181
G1 X130.014 Y101.601 E77.45291
G1 X137.886 Y109.474 E78.78144
G1 X137.886 Y110.488 E78.90254
G1 X130.014 Y102.616 E80.23107
G1 X130.014 Y103.631 E80.35217
G1 X137.886 Y111.503 E81.68071
G1 X137.886 Y112.518 E81.80180
G1 X130.014 Y104.646 E83.13034
G1 X130.014 Y105.660 E83.25144
G1 X137.886 Y113.533 E84.57997
G1 X137.886 Y114.548 E84.70107
G1 X130.014 Y106.675 E86.02960
G1 X130.014 Y107.690 E86.15070
G1 X137.886 Y115.562 E87.47924
G1 X137.886 Y116.577 E87.60033
G1 X130.014 Y108.705 E88.92887
G1 X130.014 Y109.720 E89.04997
G1 X137.886 Y117.592 E90.37850
G1 X137.886 Y118.607 E90.49960
G1 X130.014 Y110.734 E91.82813
G1 X130.014 Y111.749 E91.94923
G1 X137.886 Y119.621 E93.27777
G1 X137.886 Y120.636 E93.39886
G1 X130.014 Y112.764 E94.72740
G1 X130.014 Y113.779 E94.84850
G1 X137.886 Y121.651 E96.17703
G1 X137.886 Y122.666 E96.29813
G1 X130.014 Y114.794 E97.62666
G1 X130.014 Y115.808 E97.74776
G1 X137.886 Y123.681 E99.07630
G1 X137.886 Y124.695 E99.19739
G1 X130.014 Y116.823 E100.52593
G1 X130.014 Y117.838 E100.64703
G1 X137.886 Y125.710 E101.97556
G1 X137.886 Y126.725 E102.09666
G1 X130.014 Y118.853 E103.42520
G1 X130.014 Y119.867 E103.54629
G1 X137.886 Y127.740 E104.87483
G1 X137.886 Y128.755 E104.99592
G1 X130.014 Y120.882 E106.32446
G1 X130.014 Y121.897 E106.44556
G1 X137.886 Y129.769 E107.77409
G1 X137.886 Y130.784 E107.89519
G1 X130.014 Y122.912 E109.22373
G1 X130.014 Y123.927 E109.34482
G1 X137.886 Y131.799 E110.67336
G1 X137.886 Y132.814 E110.79446
G1 X130.014 Y124.941 E112.12299
G1 X130.014 Y125.956 E112.24409
G1 X137.886 Y133.829 E113.57262
G1 X137.886 Y134.843 E113.69372
G1 X130.014 Y126.971 E115.02226
G1 X130.014 Y127.986 E115.14335
G1 X137.886 Y135.858 E116.47189
G1 X137.886 Y136.873 E116.59299
G1 X129.941 Y128.928 E117.93381
G1 X129.685 Y129.687 E118.02938
G1 X137.886 Y137.888 E119.41339
G1 X137.886 Y138.902 E119.53449
G1 X129.307 Y130.323 E120.98237
G1 X128.819 Y130.850 E121.06806
G1 X137.886 Y139.917 E122.59831
G1 X137.886 Y140.932 E122.71941
G1 X128.210 Y131.256 E124.35235
G1 X127.499 Y131.559 E124.44465
G1 X137.886 Y141.947 E126.19767
G1 X137.886 Y142.962 E126.31876
G1 X126.588 Y131.664 E128.22539
G1 X125.574 Y131.664 E128.34649
G1 X137.886 Y143.976 E130.42437
G1 X137.886 Y144.991 E130.54547
G1 X124.559 Y131.664 E132.79461
G1 X123.544 Y131.664 E132.91570
