;FLAVOR:Marlin
;TIME:718
;Filament used: 0.997828m
;Layer height: 0.2
;Generated with Cura_SteamEngine 3.4.1
M190 S60
M104 S200
M109 S200
M82 ;absolute extrusion mode
;Sliced at: Sat 22-09-2018 18:30:35
G21 ;metric values
G90 ;absolute positioning
M82 ;set extruder to absolute mode
M107 ;start with the fan off

G28 X0 Y0 ;move X/Y to min endstops
G28 Z0 ;move Z to min endstops
G29

G0 X0 Y15 F9000 ;Go to front
G0 Z0.15 ;Drop to bed
G92 E0 ;zero the extruded length
G1 X40 E25 F500 ;Extrude 25mm of filament in a 4cm line
G92 E0 ;zero the extruded length
G1 E-1 F500 ;Retract a little
G1 X80 F4000 ;Quickly wipe away from the filament line
G1 Z0.3 ;Raise and begin printing.
G92 E0
G1 F1500 E-6.5
;LAYER_COUNT:2
;LAYER:0
M107
G0 F3600 X4.623 Y4.349 Z0.3
;TYPE:SKIRT
G1 F1500 E0
G1 F1800 X5.222 Y3.834 E0.03941
G1 X5.87 Y3.383 E0.0788
G1 X6.561 Y2.999 E0.11824
G1 X7.286 Y2.687 E0.15762
G1 X8.039 Y2.45 E0.197
G1 X8.813 Y2.291 E0.23642
G1 X9.598 Y2.21 E0.27579
G1 X10 Y2.2 E0.29586
G1 X210 Y2.2 E10.2739
G1 X210.789 Y2.24 E10.31331
G1 X211.569 Y2.359 E10.35267
G1 X212.334 Y2.557 E10.3921
G1 X213.074 Y2.831 E10.43147
G1 X213.783 Y3.179 E10.47087
G1 X214.454 Y3.597 E10.51031
G1 X215.078 Y4.08 E10.54968
G1 X215.651 Y4.623 E10.58906
G1 X216.166 Y5.222 E10.62847
G1 X216.617 Y5.87 E10.66786
G1 X217.001 Y6.561 E10.7073
G1 X217.313 Y7.286 E10.74668
G1 X217.55 Y8.039 E10.78606
G1 X217.709 Y8.813 E10.82548
G1 X217.79 Y9.598 E10.86486
G1 X217.8 Y10 E10.88492
G1 X217.8 Y210 E20.86296
G1 X217.76 Y210.789 E20.90237
G1 X217.641 Y211.569 E20.94174
G1 X217.443 Y212.334 E20.98116
G1 X217.169 Y213.074 E21.02053
G1 X216.821 Y213.783 E21.05993
G1 X216.403 Y214.454 E21.09937
G1 X215.92 Y215.078 E21.13874
G1 X215.377 Y215.651 E21.17813
G1 X214.778 Y216.166 E21.21754
G1 X214.13 Y216.617 E21.25692
G1 X213.439 Y217.001 E21.29636
G1 X212.714 Y217.313 E21.33574
G1 X211.961 Y217.55 E21.37513
G1 X211.187 Y217.709 E21.41455
G1 X210.402 Y217.79 E21.45392
G1 X210 Y217.8 E21.47398
G1 X10 Y217.8 E31.45202
G1 X9.211 Y217.76 E31.49144
G1 X8.431 Y217.641 E31.5308
G1 X7.666 Y217.443 E31.57022
G1 X6.926 Y217.169 E31.60959
G1 X6.217 Y216.821 E31.64899
G1 X5.546 Y216.403 E31.68844
G1 X4.922 Y215.92 E31.7278
G1 X4.349 Y215.377 E31.76719
G1 X3.834 Y214.778 E31.8066
G1 X3.383 Y214.13 E31.84599
G1 X2.999 Y213.439 E31.88543
G1 X2.687 Y212.714 E31.9248
G1 X2.45 Y211.961 E31.96419
G1 X2.291 Y211.187 E32.00361
G1 X2.21 Y210.402 E32.04298
G1 X2.2 Y210 E32.06304
G1 X2.2 Y10 E42.04108
G1 X2.24 Y9.211 E42.0805
G1 X2.359 Y8.431 E42.11986
G1 X2.557 Y7.666 E42.15929
G1 X2.831 Y6.926 E42.19865
G1 X3.179 Y6.217 E42.23806
G1 X3.597 Y5.546 E42.2775
G1 X4.08 Y4.922 E42.31687
G1 X4.623 Y4.349 E42.35625
G0 F3600 X5.016 Y4.53
G1 F1800 X5.611 Y4.042 E42.39464
G1 X6.253 Y3.619 E42.433
G1 X6.936 Y3.264 E42.4714
G1 X7.651 Y2.983 E42.50973
G1 X8.393 Y2.777 E42.54815
G1 X9.151 Y2.649 E42.5865
G1 X10 Y2.6 E42.62893
G1 X210 Y2.6 E52.60697
G1 X210.768 Y2.64 E52.64534
G1 X211.528 Y2.759 E52.68371
G1 X212.271 Y2.957 E52.72208
G1 X212.99 Y3.231 E52.76046
G1 X213.676 Y3.578 E52.79882
G1 X214.323 Y3.994 E52.83719
G1 X214.923 Y4.475 E52.87556
G1 X215.47 Y5.016 E52.91394
G1 X215.958 Y5.611 E52.95233
G1 X216.381 Y6.253 E52.99069
G1 X216.736 Y6.936 E53.02909
G1 X217.017 Y7.651 E53.06742
G1 X217.223 Y8.393 E53.10584
G1 X217.351 Y9.151 E53.14419
G1 X217.4 Y10 E53.18662
G1 X217.4 Y210 E63.16466
G1 X217.36 Y210.768 E63.20303
G1 X217.241 Y211.528 E63.24141
G1 X217.043 Y212.271 E63.27977
G1 X216.769 Y212.99 E63.31815
G1 X216.422 Y213.676 E63.35651
G1 X216.006 Y214.323 E63.39488
G1 X215.525 Y214.923 E63.43325
G1 X214.984 Y215.47 E63.47163
G1 X214.389 Y215.958 E63.51002
G1 X213.747 Y216.381 E63.54838
G1 X213.064 Y216.736 E63.58678
G1 X212.349 Y217.017 E63.62511
G1 X211.607 Y217.223 E63.66353
G1 X210.849 Y217.351 E63.70188
G1 X210 Y217.4 E63.74431
G1 X10 Y217.4 E73.72235
G1 X9.232 Y217.36 E73.76072
G1 X8.472 Y217.241 E73.7991
G1 X7.729 Y217.043 E73.83746
G1 X7.01 Y216.769 E73.87585
G1 X6.324 Y216.422 E73.9142
G1 X5.677 Y216.006 E73.95258
G1 X5.077 Y215.525 E73.99094
G1 X4.53 Y214.984 E74.02932
G1 X4.042 Y214.389 E74.06772
G1 X3.619 Y213.747 E74.10607
G1 X3.264 Y213.064 E74.14447
G1 X2.983 Y212.349 E74.1828
G1 X2.777 Y211.607 E74.22122
G1 X2.649 Y210.849 E74.25957
G1 X2.6 Y210 E74.302
G1 X2.6 Y10 E84.28004
G1 X2.64 Y9.232 E84.31841
G1 X2.759 Y8.472 E84.35679
G1 X2.957 Y7.729 E84.39515
G1 X3.231 Y7.01 E84.43354
G1 X3.578 Y6.324 E84.47189
G1 X3.994 Y5.677 E84.51027
G1 X4.475 Y5.077 E84.54863
G1 X5.016 Y4.53 E84.58701
G0 F3600 X5.408 Y4.716
G1 F1800 X5.998 Y4.257 E84.62431
G1 X6.634 Y3.862 E84.66166
G1 X7.308 Y3.538 E84.69897
G1 X8.013 Y3.288 E84.73629
G1 X8.741 Y3.114 E84.77363
G1 X9.483 Y3.019 E84.81095
G1 X10 Y3 E84.83676
G1 X210 Y3 E94.8148
G1 X210.747 Y3.04 E94.85212
G1 X211.485 Y3.159 E94.88942
G1 X212.207 Y3.357 E94.92677
G1 X212.903 Y3.63 E94.96407
G1 X213.566 Y3.977 E95.0014
G1 X214.189 Y4.392 E95.03875
G1 X214.763 Y4.871 E95.07605
G1 X215.284 Y5.408 E95.11338
G1 X215.743 Y5.998 E95.15067
G1 X216.138 Y6.634 E95.18802
G1 X216.462 Y7.308 E95.22533
G1 X216.712 Y8.013 E95.26265
G1 X216.886 Y8.741 E95.29999
G1 X216.981 Y9.483 E95.33731
G1 X217 Y10 E95.36312
G1 X217 Y210 E105.34116
G1 X216.96 Y210.747 E105.37848
G1 X216.841 Y211.485 E105.41578
G1 X216.643 Y212.207 E105.45313
G1 X216.37 Y212.903 E105.49043
G1 X216.023 Y213.566 E105.52776
G1 X215.608 Y214.189 E105.56511
G1 X215.129 Y214.763 E105.60241
G1 X214.592 Y215.284 E105.63974
G1 X214.002 Y215.743 E105.67703
G1 X213.366 Y216.138 E105.71438
G1 X212.692 Y216.462 E105.75169
G1 X211.987 Y216.712 E105.78901
G1 X211.259 Y216.886 E105.82635
G1 X210.517 Y216.981 E105.86367
G1 X210 Y217 E105.88948
G1 X10 Y217 E115.86752
G1 X9.253 Y216.96 E115.90485
G1 X8.515 Y216.841 E115.94214
G1 X7.793 Y216.643 E115.97949
G1 X7.097 Y216.37 E116.01679
G1 X6.434 Y216.023 E116.05412
G1 X5.811 Y215.608 E116.09147
G1 X5.237 Y215.129 E116.12877
G1 X4.716 Y214.592 E116.1661
G1 X4.257 Y214.002 E116.20339
G1 X3.862 Y213.366 E116.24074
G1 X3.538 Y212.692 E116.27805
G1 X3.288 Y211.987 E116.31537
G1 X3.114 Y211.259 E116.35271
G1 X3.019 Y210.517 E116.39003
G1 X3 Y210 E116.41584
G1 X3 Y10 E126.39388
G1 X3.04 Y9.253 E126.43121
G1 X3.159 Y8.515 E126.4685
G1 X3.357 Y7.793 E126.50585
G1 X3.63 Y7.097 E126.54315
G1 X3.977 Y6.434 E126.58048
G1 X4.392 Y5.811 E126.61783
G1 X4.871 Y5.237 E126.65513
G1 X5.408 Y4.716 E126.69246
G0 F3600 X5.265 Y5.402
G1 F1800 X5.799 Y4.909 E126.72872
G1 X6.384 Y4.479 E126.76494
G1 X7.013 Y4.115 E126.80119
G1 X7.678 Y3.822 E126.83745
G1 X8.371 Y3.604 E126.87369
G1 X9.083 Y3.464 E126.9099
G1 X10 Y3.4 E126.95576
G1 X210 Y3.4 E136.9338
G1 X210.725 Y3.44 E136.97002
G1 X211.442 Y3.559 E137.00628
G1 X212.141 Y3.757 E137.04253
G1 X212.814 Y4.03 E137.07876
G1 X213.453 Y4.375 E137.11499
G1 X214.05 Y4.789 E137.15124
G1 X214.598 Y5.265 E137.18745
G1 X215.091 Y5.799 E137.22371
G1 X215.521 Y6.384 E137.25993
G1 X215.885 Y7.013 E137.29619
G1 X216.178 Y7.678 E137.33244
G1 X216.396 Y8.371 E137.36869
G1 X216.536 Y9.083 E137.40489
G1 X216.6 Y10 E137.45075
G1 X216.6 Y210 E147.42879
G1 X216.56 Y210.725 E147.46501
G1 X216.441 Y211.442 E147.50128
G1 X216.243 Y212.141 E147.53752
G1 X215.97 Y212.814 E147.57375
G1 X215.625 Y213.453 E147.60998
G1 X215.211 Y214.05 E147.64623
G1 X214.735 Y214.598 E147.68244
G1 X214.201 Y215.091 E147.7187
G1 X213.616 Y215.521 E147.75492
G1 X212.987 Y215.885 E147.79118
G1 X212.322 Y216.178 E147.82743
G1 X211.629 Y216.396 E147.86368
G1 X210.917 Y216.536 E147.89988
G1 X210 Y216.6 E147.94574
G1 X10 Y216.6 E157.92378
G1 X9.275 Y216.56 E157.96001
G1 X8.558 Y216.441 E157.99627
G1 X7.859 Y216.243 E158.03251
G1 X7.186 Y215.97 E158.06875
G1 X6.547 Y215.625 E158.10498
G1 X5.95 Y215.211 E158.14122
G1 X5.402 Y214.735 E158.17744
G1 X4.909 Y214.201 E158.21369
G1 X4.479 Y213.616 E158.24992
G1 X4.115 Y212.987 E158.28617
G1 X3.822 Y212.322 E158.32243
G1 X3.604 Y211.629 E158.35867
G1 X3.464 Y210.917 E158.39487
G1 X3.4 Y210 E158.44073
G1 X3.4 Y10 E168.41878
G1 X3.44 Y9.275 E168.455
G1 X3.559 Y8.558 E168.49126
G1 X3.757 Y7.859 E168.52751
G1 X4.03 Y7.186 E168.56374
G1 X4.375 Y6.547 E168.59997
G1 X4.789 Y5.95 E168.63621
G1 X5.265 Y5.402 E168.67243
G0 F3600 X5.659 Y5.573
G1 F1800 X6.189 Y5.109 E168.70757
G1 X6.768 Y4.709 E168.74268
G1 X7.389 Y4.377 E168.77781
G1 X8.043 Y4.117 E168.81292
G1 X8.723 Y3.933 E168.84807
G1 X9.419 Y3.827 E168.88319
G1 X10 Y3.8 E168.91221
G1 X210 Y3.8 E178.89025
G1 X210.703 Y3.84 E178.92538
G1 X211.397 Y3.959 E178.96051
G1 X212.072 Y4.157 E178.99561
G1 X212.721 Y4.429 E179.03071
G1 X213.335 Y4.774 E179.06585
G1 X213.906 Y5.185 E179.10095
G1 X214.427 Y5.659 E179.13609
G1 X214.891 Y6.189 E179.17123
G1 X215.291 Y6.768 E179.20634
G1 X215.623 Y7.389 E179.24147
G1 X215.883 Y8.043 E179.27659
G1 X216.067 Y8.723 E179.31173
G1 X216.173 Y9.419 E179.34686
G1 X216.2 Y10 E179.37587
G1 X216.2 Y210 E189.35391
G1 X216.16 Y210.703 E189.38904
G1 X216.041 Y211.397 E189.42417
G1 X215.843 Y212.072 E189.45927
G1 X215.571 Y212.721 E189.49437
G1 X215.226 Y213.335 E189.52951
G1 X214.815 Y213.906 E189.56461
G1 X214.341 Y214.427 E189.59975
G1 X213.811 Y214.891 E189.63489
G1 X213.232 Y215.291 E189.67
G1 X212.611 Y215.623 E189.70514
G1 X211.957 Y215.883 E189.74025
G1 X211.277 Y216.067 E189.77539
G1 X210.581 Y216.173 E189.81052
G1 X210 Y216.2 E189.83953
G1 X10 Y216.2 E199.81757
G1 X9.297 Y216.16 E199.8527
G1 X8.603 Y216.041 E199.88783
G1 X7.928 Y215.843 E199.92293
G1 X7.279 Y215.571 E199.95804
G1 X6.665 Y215.226 E199.99317
G1 X6.094 Y214.815 E200.02827
G1 X5.573 Y214.341 E200.06341
G1 X5.109 Y213.811 E200.09856
G1 X4.709 Y213.232 E200.13367
G1 X4.377 Y212.611 E200.1688
G1 X4.117 Y211.957 E200.20391
G1 X3.933 Y211.277 E200.23905
G1 X3.827 Y210.581 E200.27418
G1 X3.8 Y210 E200.3032
G1 X3.8 Y10 E210.28124
G1 X3.84 Y9.297 E210.31637
G1 X3.959 Y8.603 E210.3515
G1 X4.157 Y7.928 E210.38659
G1 X4.429 Y7.279 E210.4217
G1 X4.774 Y6.665 E210.45683
G1 X5.185 Y6.094 E210.49193
G1 X5.659 Y5.573 E210.52707
G0 F3600 X6.053 Y5.751
G1 F1800 X6.578 Y5.317 E210.56106
G1 X7.15 Y4.948 E210.59502
G1 X7.762 Y4.649 E210.629
G1 X8.404 Y4.424 E210.66294
G1 X9.069 Y4.275 E210.69694
G1 X10 Y4.2 E210.74354
G1 X210 Y4.2 E220.72158
G1 X210.68 Y4.24 E220.75556
G1 X211.35 Y4.359 E220.78951
G1 X212.002 Y4.556 E220.82349
G1 X212.626 Y4.828 E220.85745
G1 X213.214 Y5.172 E220.89144
G1 X213.758 Y5.582 E220.92542
G1 X214.249 Y6.053 E220.95937
G1 X214.683 Y6.578 E220.99335
G1 X215.052 Y7.15 E221.02731
G1 X215.351 Y7.762 E221.06129
G1 X215.576 Y8.404 E221.09523
G1 X215.725 Y9.069 E221.12923
G1 X215.8 Y10 E221.17583
G1 X215.8 Y210 E231.15387
G1 X215.76 Y210.68 E231.18786
G1 X215.641 Y211.35 E231.22181
G1 X215.444 Y212.002 E231.25579
G1 X215.172 Y212.626 E231.28975
G1 X214.828 Y213.214 E231.32373
G1 X214.418 Y213.758 E231.35772
G1 X213.947 Y214.249 E231.39166
G1 X213.422 Y214.683 E231.42565
G1 X212.85 Y215.052 E231.45961
G1 X212.238 Y215.351 E231.49359
G1 X211.596 Y215.576 E231.52753
G1 X210.931 Y215.725 E231.56153
G1 X210 Y215.8 E231.60813
G1 X10 Y215.8 E241.58617
G1 X9.32 Y215.76 E241.62015
G1 X8.65 Y215.641 E241.6541
G1 X7.998 Y215.444 E241.68808
G1 X7.374 Y215.172 E241.72204
G1 X6.786 Y214.828 E241.75603
G1 X6.242 Y214.418 E241.79001
G1 X5.751 Y213.947 E241.82396
G1 X5.317 Y213.422 E241.85794
G1 X4.948 Y212.85 E241.8919
G1 X4.649 Y212.238 E241.92588
G1 X4.424 Y211.596 E241.95982
G1 X4.275 Y210.931 E241.99382
G1 X4.2 Y210 E242.04042
G1 X4.2 Y10 E252.01846
G1 X4.24 Y9.32 E252.05245
G1 X4.359 Y8.65 E252.0864
G1 X4.556 Y7.998 E252.12038
G1 X4.828 Y7.374 E252.15434
G1 X5.172 Y6.786 E252.18832
G1 X5.582 Y6.242 E252.22231
G1 X6.053 Y5.751 E252.25625
G0 F3600 X6.445 Y5.935
G1 F1800 X6.965 Y5.534 E252.28901
G1 X7.529 Y5.198 E252.32177
G1 X8.131 Y4.934 E252.35456
G1 X8.76 Y4.744 E252.38734
G1 X9.407 Y4.633 E252.42009
G1 X10 Y4.6 E252.44972
G1 X210 Y4.6 E262.42777
G1 X210.656 Y4.64 E262.46055
G1 X211.302 Y4.759 E262.49333
G1 X211.929 Y4.956 E262.52611
G1 X212.527 Y5.228 E262.55889
G1 X213.088 Y5.57 E262.59167
G1 X213.603 Y5.978 E262.62445
G1 X214.065 Y6.445 E262.65722
G1 X214.466 Y6.965 E262.68998
G1 X214.802 Y7.529 E262.72274
G1 X215.066 Y8.131 E262.75553
G1 X215.256 Y8.76 E262.78831
G1 X215.367 Y9.407 E262.82106
G1 X215.4 Y10 E262.85069
G1 X215.4 Y210 E272.82873
G1 X215.36 Y210.656 E272.86152
G1 X215.241 Y211.302 E272.89429
G1 X215.044 Y211.929 E272.92708
G1 X214.772 Y212.527 E272.95986
G1 X214.43 Y213.088 E272.99264
G1 X214.022 Y213.603 E273.02542
G1 X213.555 Y214.065 E273.05819
G1 X213.035 Y214.466 E273.09095
G1 X212.471 Y214.802 E273.1237
G1 X211.869 Y215.066 E273.1565
G1 X211.24 Y215.256 E273.18928
G1 X210.593 Y215.367 E273.22203
G1 X210 Y215.4 E273.25166
G1 X10 Y215.4 E283.2297
G1 X9.344 Y215.36 E283.26249
G1 X8.698 Y215.241 E283.29526
G1 X8.071 Y215.044 E283.32805
G1 X7.473 Y214.772 E283.36083
G1 X6.912 Y214.43 E283.39361
G1 X6.397 Y214.022 E283.42639
G1 X5.935 Y213.555 E283.45916
G1 X5.534 Y213.035 E283.49192
G1 X5.198 Y212.471 E283.52467
G1 X4.934 Y211.869 E283.55747
G1 X4.744 Y211.24 E283.59025
G1 X4.633 Y210.593 E283.623
G1 X4.6 Y210 E283.65263
G1 X4.6 Y10 E293.63067
G1 X4.64 Y9.344 E293.66346
G1 X4.759 Y8.698 E293.69623
G1 X4.956 Y8.071 E293.72902
G1 X5.228 Y7.473 E293.76179
G1 X5.57 Y6.912 E293.79457
G1 X5.978 Y6.397 E293.82735
G1 X6.445 Y5.935 E293.86013
G0 F3600 X6.373 Y6.559
G1 F1800 X6.836 Y6.129 E293.89165
G1 X7.35 Y5.76 E293.92322
G1 X7.906 Y5.46 E293.95474
G1 X8.495 Y5.232 E293.98625
G1 X9.109 Y5.08 E294.01781
G1 X10 Y5 E294.06244
G1 X210 Y5 E304.04048
G1 X210.631 Y5.04 E304.07202
G1 X211.252 Y5.159 E304.10357
G1 X211.852 Y5.356 E304.13507
G1 X212.424 Y5.627 E304.16665
G1 X212.956 Y5.967 E304.19815
G1 X213.441 Y6.373 E304.22971
G1 X213.871 Y6.836 E304.26123
G1 X214.24 Y7.35 E304.2928
G1 X214.54 Y7.906 E304.32432
G1 X214.768 Y8.495 E304.35583
G1 X214.92 Y9.109 E304.38738
G1 X215 Y10 E304.43201
G1 X215 Y210 E314.41006
G1 X214.96 Y210.631 E314.4416
G1 X214.841 Y211.252 E314.47314
G1 X214.644 Y211.852 E314.50465
G1 X214.373 Y212.424 E314.53623
G1 X214.033 Y212.956 E314.56773
G1 X213.627 Y213.441 E314.59928
G1 X213.164 Y213.871 E314.63081
G1 X212.65 Y214.24 E314.66238
G1 X212.094 Y214.54 E314.6939
G1 X211.505 Y214.768 E314.72541
G1 X210.891 Y214.92 E314.75696
G1 X210 Y215 E314.80159
G1 X10 Y215 E324.77963
G1 X9.369 Y214.96 E324.81118
G1 X8.748 Y214.841 E324.84272
G1 X8.148 Y214.644 E324.87423
G1 X7.576 Y214.373 E324.90581
G1 X7.044 Y214.033 E324.93731
G1 X6.559 Y213.627 E324.96886
G1 X6.129 Y213.164 E325.00039
G1 X5.76 Y212.65 E325.03195
G1 X5.46 Y212.094 E325.06347
G1 X5.232 Y211.505 E325.09498
G1 X5.08 Y210.891 E325.12654
G1 X5 Y210 E325.17117
G1 X5 Y10 E335.14921
G1 X5.04 Y9.369 E335.18076
G1 X5.159 Y8.748 E335.2123
G1 X5.356 Y8.148 E335.24381
G1 X5.627 Y7.576 E335.27539
G1 X5.967 Y7.044 E335.30689
G1 X6.373 Y6.559 E335.33844
G0 F3600 X6.767 Y6.728
G1 F1800 X7.225 Y6.331 E335.36868
G1 X7.732 Y5.998 E335.39894
G1 X8.278 Y5.734 E335.4292
G1 X8.854 Y5.545 E335.45944
G1 X9.45 Y5.433 E335.4897
G1 X10 Y5.4 E335.51719
G1 X210 Y5.4 E345.49523
G1 X210.605 Y5.44 E345.52548
G1 X211.199 Y5.559 E345.5557
G1 X211.773 Y5.755 E345.58596
G1 X212.316 Y6.026 E345.61624
G1 X212.819 Y6.365 E345.6465
G1 X213.272 Y6.767 E345.67672
G1 X213.669 Y7.225 E345.70696
G1 X214.002 Y7.732 E345.73722
G1 X214.266 Y8.278 E345.76748
G1 X214.455 Y8.854 E345.79772
G1 X214.567 Y9.45 E345.82797
G1 X214.6 Y10 E345.85546
G1 X214.6 Y210 E355.8335
G1 X214.56 Y210.605 E355.86375
G1 X214.441 Y211.199 E355.89398
G1 X214.245 Y211.773 E355.92424
G1 X213.974 Y212.316 E355.95451
G1 X213.635 Y212.819 E355.98478
G1 X213.233 Y213.272 E356.01499
G1 X212.775 Y213.669 E356.04523
G1 X212.268 Y214.002 E356.07549
G1 X211.722 Y214.266 E356.10575
G1 X211.146 Y214.455 E356.136
G1 X210.55 Y214.567 E356.16625
G1 X210 Y214.6 E356.19374
G1 X10 Y214.6 E366.17178
G1 X9.395 Y214.56 E366.20203
G1 X8.801 Y214.441 E366.23225
G1 X8.227 Y214.245 E366.26251
G1 X7.684 Y213.974 E366.29279
G1 X7.181 Y213.635 E366.32305
G1 X6.728 Y213.233 E366.35327
G1 X6.331 Y212.775 E366.38351
G1 X5.998 Y212.268 E366.41377
G1 X5.734 Y211.722 E366.44403
G1 X5.545 Y211.146 E366.47427
